(Exported by FreeCAD)
(Post Processor: grbl_post)
(Output Time:2022-10-13 13:34:39.341017)
(Begin preamble)
G17 G90
G21
(Begin operation: G54)
(Path: G54)
G54
G0 Z6.000
(Finish operation: G54)
(Begin operation: 6mm_Endmill_Slow)
(Path: 6mm_Endmill_Slow)
(6mm_Endmill_Slow)
(Begin toolchange)
( M6 T1 )
M3 S5000
(Finish operation: 6mm_Endmill_Slow)
(Begin operation: Profile)
(Path: Profile)
(Profile)
(Compensated Tool Path. Diameter: 6.0)
G0 Z6.000
G0 X45.880 Y45.880
G0 Z4.000
G1 X45.880 Y45.880 Z0.000 F150.000
G2 X45.439 Y43.835 Z0.000 I-0.880 J-0.880 K0.000 F600.000
G1 X45.269 Y43.784 Z0.000 F600.000
G2 X44.723 Y46.213 Z0.000 I-0.268 J1.215 K0.000 F600.000
G2 X45.880 Y45.880 Z0.000 I0.277 J-1.213 K0.000 F600.000
G0 Z6.000
G0 X23.977 Y8.002 Z6.000
G0 X23.977 Y8.002 Z4.000
G1 X23.977 Y8.002 Z0.000 F150.000
G2 X24.000 Y7.902 Z0.000 I-0.035 J-0.061 K0.000 F600.000
G1 X24.000 Y-7.902 Z0.000 F600.000
G2 X23.902 Y-8.000 Z0.000 I-0.059 J-0.039 K0.000 F600.000
G1 X-23.902 Y-8.000 Z0.000 F600.000
G2 X-24.000 Y-7.902 Z0.000 I-0.039 J0.059 K0.000 F600.000
G1 X-24.000 Y7.902 Z0.000 F600.000
G2 X-23.902 Y8.000 Z0.000 I0.059 J0.039 K0.000 F600.000
G1 X23.902 Y8.000 Z0.000 F600.000
G2 X23.977 Y8.002 Z0.000 I0.039 J-0.059 K0.000 F600.000
G0 Z6.000
G0 X44.541 Y-43.843 Z6.000
G0 X44.541 Y-43.843 Z4.000
G1 X44.541 Y-43.843 Z0.000 F150.000
G2 X44.723 Y-43.787 Z0.000 I0.459 J-1.157 K0.000 F600.000
G2 X45.439 Y-46.165 Z0.000 I0.277 J-1.213 K0.000 F600.000
G1 X45.269 Y-46.216 Z0.000 F600.000
G2 X44.541 Y-43.843 Z0.000 I-0.268 J1.215 K0.000 F600.000
G0 Z6.000
G0 X-43.756 Y-44.984 Z6.000
G0 X-43.756 Y-44.984 Z4.000
G1 X-43.756 Y-44.984 Z0.000 F150.000
G2 X-44.723 Y-46.213 Z0.000 I-1.245 J-0.016 K0.000 F600.000
G2 X-46.215 Y-45.273 Z0.000 I-0.277 J1.213 K0.000 F600.000
G2 X-45.269 Y-43.784 Z0.000 I1.214 J0.273 K0.000 F600.000
G2 X-43.756 Y-44.984 Z0.000 I0.268 J-1.215 K0.000 F600.000
G0 Z6.000
G0 X-44.982 Y43.755 Z6.000
G0 X-44.982 Y43.755 Z4.000
G1 X-44.982 Y43.755 Z0.000 F150.000
G2 X-45.277 Y46.213 Z0.000 I-0.017 J1.245 K0.000 F600.000
G2 X-44.561 Y43.835 Z0.000 I0.277 J-1.213 K0.000 F600.000
G1 X-44.731 Y43.784 Z0.000 F600.000
G2 X-44.982 Y43.755 Z0.000 I-0.268 J1.215 K0.000 F600.000
G0 Z6.000
G0 Z6.000
(Finish operation: Profile)
(Begin operation: Profile001)
(Path: Profile001)
(Profile001)
(Compensated Tool Path. Diameter: 6.0)
G0 Z6.000
G0 X54.478 Y54.478
G0 Z4.000
G1 X54.478 Y54.478 Z0.000 F150.000
G2 X55.800 Y51.300 Z0.000 I-3.191 J-3.191 K0.000 F600.000
G1 X55.800 Y-51.300 Z0.000 F600.000
G2 X51.300 Y-55.800 Z0.000 I-4.513 J0.013 K0.000 F600.000
G1 X-51.300 Y-55.800 Z0.000 F600.000
G2 X-55.800 Y-51.300 Z0.000 I0.013 J4.513 K0.000 F600.000
G1 X-55.800 Y51.300 Z0.000 F600.000
G2 X-51.300 Y55.800 Z0.000 I4.513 J-0.013 K0.000 F600.000
G1 X51.300 Y55.800 Z0.000 F600.000
G2 X54.478 Y54.478 Z0.000 I-0.013 J-4.513 K0.000 F600.000
G0 Z6.000
G0 Z6.000
(Finish operation: Profile001)
(Begin postamble)
M5
G17 G90
M2
