(Exported by FreeCAD)
(Post Processor: grbl_post)
(Output Time:2022-10-13 13:34:58.432093)
(Begin preamble)
G17 G90
G21
(Begin operation: G54)
(Path: G54)
G54
G0 Z6.000
(Finish operation: G54)
(Begin operation: 6mm_Endmill_Contour)
(Path: 6mm_Endmill_Contour)
(6mm_Endmill_Contour)
(Begin toolchange)
( M6 T1 )
M3 S5000
(Finish operation: 6mm_Endmill_Contour)
(Begin operation: LeadInOutDressup)
(Path: LeadInOutDressup)
(Profile002)
(Compensated Tool Path. Diameter: 6.0)
G0 X61.000 Y51.500 Z6.000
G0 Z4.000
G0 X61.000 Y51.500 Z-17.000
G3 X56.500 Y47.000 I0.000 J-4.500 F1500.000
G1 X56.500 Y47.000 Z-17.000 F150.000
G1 X56.500 Y-51.300 Z-17.000 F1500.000
G2 X51.300 Y-56.500 Z-17.000 I-5.214 J0.014 K0.000 F1500.000
G1 X-51.300 Y-56.500 Z-17.000 F1500.000
G2 X-56.500 Y-51.300 Z-17.000 I0.014 J5.214 K0.000 F1500.000
G1 X-56.500 Y51.300 Z-17.000 F1500.000
G2 X-51.300 Y56.500 Z-17.000 I5.214 J-0.014 K0.000 F1500.000
G1 X51.300 Y56.500 Z-17.000 F1500.000
G2 X56.500 Y51.300 Z-17.000 I-0.014 J-5.214 K0.000 F1500.000
G1 X56.500 Y47.000 Z-17.000 F1500.000
G3 X61.000 Y42.500 I4.500 J0.000 F1500.000
G0 Z6.000
(Finish operation: LeadInOutDressup)
(Begin operation: LeadInOutDressup002)
(Path: LeadInOutDressup002)
(Profile003)
(Compensated Tool Path. Diameter: 6.0)
G0 X60.900 Y51.500 Z6.000
G0 Z4.000
G0 X60.900 Y51.500 Z-17.000
G3 X56.400 Y47.000 I0.000 J-4.500 F1500.000
G1 X56.400 Y47.000 Z-17.000 F150.000
G1 X56.400 Y-51.300 Z-17.000 F1500.000
G2 X51.300 Y-56.400 Z-17.000 I-5.114 J0.014 K0.000 F1500.000
G1 X-51.300 Y-56.400 Z-17.000 F1500.000
G2 X-56.400 Y-51.300 Z-17.000 I0.014 J5.114 K0.000 F1500.000
G1 X-56.400 Y51.300 Z-17.000 F1500.000
G2 X-51.300 Y56.400 Z-17.000 I5.114 J-0.014 K0.000 F1500.000
G1 X51.300 Y56.400 Z-17.000 F1500.000
G2 X56.400 Y51.300 Z-17.000 I-0.014 J-5.114 K0.000 F1500.000
G1 X56.400 Y47.000 Z-17.000 F1500.000
G3 X60.900 Y42.500 I4.500 J0.000 F1500.000
G0 Z6.000
(Finish operation: LeadInOutDressup002)
(Begin operation: LeadInOutDressup003)
(Path: LeadInOutDressup003)
(Profile004)
(Compensated Tool Path. Diameter: 6.0)
G0 X60.850 Y51.500 Z6.000
G0 Z4.000
G0 X60.850 Y51.500 Z-17.000
G3 X56.350 Y47.000 I0.000 J-4.500 F1500.000
G1 X56.350 Y47.000 Z-17.000 F150.000
G1 X56.350 Y-51.300 Z-17.000 F1500.000
G2 X51.300 Y-56.350 Z-17.000 I-5.064 J0.014 K0.000 F1500.000
G1 X-51.300 Y-56.350 Z-17.000 F1500.000
G2 X-56.350 Y-51.300 Z-17.000 I0.014 J5.064 K0.000 F1500.000
G1 X-56.350 Y51.300 Z-17.000 F1500.000
G2 X-51.300 Y56.350 Z-17.000 I5.064 J-0.014 K0.000 F1500.000
G1 X51.300 Y56.350 Z-17.000 F1500.000
G2 X56.350 Y51.300 Z-17.000 I-0.014 J-5.064 K0.000 F1500.000
G1 X56.350 Y47.000 Z-17.000 F1500.000
G3 X60.850 Y42.500 I4.500 J0.000 F1500.000
G0 Z6.000
(Finish operation: LeadInOutDressup003)
(Begin operation: LeadInOutDressup001)
(Path: LeadInOutDressup001)
(Profile005)
(Compensated Tool Path. Diameter: 6.0)
G0 X60.800 Y51.500 Z6.000
G0 Z4.000
G0 X60.800 Y51.500 Z-17.000
G3 X56.300 Y47.000 I0.000 J-4.500 F1500.000
G1 X56.300 Y47.000 Z-17.000 F150.000
G1 X56.300 Y-51.300 Z-17.000 F1500.000
G2 X51.300 Y-56.300 Z-17.000 I-5.014 J0.014 K0.000 F1500.000
G1 X-51.300 Y-56.300 Z-17.000 F1500.000
G2 X-56.300 Y-51.300 Z-17.000 I0.014 J5.014 K0.000 F1500.000
G1 X-56.300 Y51.300 Z-17.000 F1500.000
G2 X-51.300 Y56.300 Z-17.000 I5.014 J-0.014 K0.000 F1500.000
G1 X51.300 Y56.300 Z-17.000 F1500.000
G2 X56.300 Y51.300 Z-17.000 I-0.014 J-5.014 K0.000 F1500.000
G1 X56.300 Y47.000 Z-17.000 F1500.000
G3 X60.800 Y42.500 I4.500 J0.000 F1500.000
G0 Z6.000
(Finish operation: LeadInOutDressup001)
(Begin postamble)
M5
G17 G90
M2
