(Manually created by suku)
M3 S5000.0
G4 P12
(End of 0begin.gcode)
(Exported by FreeCAD)
(Post Processor: grbl_post)
(Output Time:2021-06-01 11:18:14.360528)
(Begin preamble)
G17 G90
G21
(Begin operation: Fixture)
(Path: Fixture)
G54
(Finish operation: Fixture)
(Begin operation: 6mm_Endmill_Slow)
(Path: 6mm_Endmill_Slow)
(6mm_Endmill_Slow)
(Begin toolchange)
( M6 T1.0 )
M3 S5000.0
(Finish operation: 6mm_Endmill_Slow)
(Begin operation: Profile)
(Path: Profile)
(Profile)
(Compensated Tool Path. Diameter: 6.0)
G0 Z6.000
G0 X45.880 Y45.880
G0 Z4.000
G1 X45.880 Y45.880 Z0.000 F150.000
G2 X45.439 Y43.835 Z0.000 I-0.880 J-0.880 K0.000 F600.000
G1 X45.269 Y43.784 Z0.000 F600.000
G2 X44.723 Y46.213 Z0.000 I-0.268 J1.215 K0.000 F600.000
G2 X45.880 Y45.880 Z0.000 I0.277 J-1.213 K0.000 F600.000
G0 Z6.000
G0 X10.991 Y10.991 Z6.000
G0 X10.991 Y10.991 Z4.000
G1 X10.991 Y10.991 Z0.000 F150.000
G2 X11.000 Y10.902 Z0.000 I-0.050 J-0.050 K0.000 F600.000
G1 X11.000 Y-10.902 Z0.000 F600.000
G2 X10.902 Y-11.000 Z0.000 I-0.059 J-0.039 K0.000 F600.000
G1 X-10.902 Y-11.000 Z0.000 F600.000
G2 X-11.000 Y-10.902 Z0.000 I-0.039 J0.059 K0.000 F600.000
G1 X-11.000 Y10.902 Z0.000 F600.000
G2 X-10.902 Y11.000 Z0.000 I0.059 J0.039 K0.000 F600.000
G1 X10.902 Y11.000 Z0.000 F600.000
G2 X10.991 Y10.991 Z0.000 I0.039 J-0.059 K0.000 F600.000
G0 Z6.000
G0 X-43.936 Y44.354 Z6.000
G0 X-43.936 Y44.354 Z4.000
G1 X-43.936 Y44.354 Z0.000 F150.000
G2 X-44.561 Y43.835 Z0.000 I-1.064 J0.646 K0.000 F600.000
G1 X-44.731 Y43.784 Z0.000 F600.000
G2 X-45.277 Y46.213 Z0.000 I-0.268 J1.215 K0.000 F600.000
G2 X-43.936 Y44.354 Z0.000 I0.277 J-1.213 K0.000 F600.000
G0 Z6.000
G0 X-44.985 Y-43.755 Z6.000
G0 X-44.985 Y-43.755 Z4.000
G1 X-44.985 Y-43.755 Z0.000 F150.000
G2 X-44.723 Y-46.213 Z0.000 I-0.015 J-1.245 K0.000 F600.000
G2 X-46.215 Y-45.273 Z0.000 I-0.277 J1.213 K0.000 F600.000
G2 X-45.269 Y-43.784 Z0.000 I1.214 J0.273 K0.000 F600.000
G2 X-44.985 Y-43.755 Z0.000 I0.268 J-1.215 K0.000 F600.000
G0 Z6.000
G0 X43.756 Y-44.983 Z6.000
G0 X43.756 Y-44.983 Z4.000
G1 X43.756 Y-44.983 Z0.000 F150.000
G2 X44.723 Y-43.787 Z0.000 I1.245 J-0.017 K0.000 F600.000
G2 X45.439 Y-46.165 Z0.000 I0.277 J-1.213 K0.000 F600.000
G1 X45.269 Y-46.216 Z0.000 F600.000
G2 X43.756 Y-44.983 Z0.000 I-0.268 J1.215 K0.000 F600.000
G0 Z6.000
G0 Z6.000
(Finish operation: Profile)
(Begin operation: Profile001)
(Path: Profile001)
(Profile001)
(Compensated Tool Path. Diameter: 6.0)
G0 Z6.000
G0 X54.478 Y54.478
G0 Z4.000
G1 X54.478 Y54.478 Z0.000 F150.000
G2 X55.800 Y51.300 Z0.000 I-3.191 J-3.191 K0.000 F600.000
G1 X55.800 Y-51.300 Z0.000 F600.000
G2 X51.300 Y-55.800 Z0.000 I-4.513 J0.013 K0.000 F600.000
G1 X-51.300 Y-55.800 Z0.000 F600.000
G2 X-55.800 Y-51.300 Z0.000 I0.013 J4.513 K0.000 F600.000
G1 X-55.800 Y51.300 Z0.000 F600.000
G2 X-51.300 Y55.800 Z0.000 I4.513 J-0.013 K0.000 F600.000
G1 X51.300 Y55.800 Z0.000 F600.000
G2 X54.478 Y54.478 Z0.000 I-0.013 J-4.513 K0.000 F600.000
G0 Z6.000
G0 Z6.000
(Finish operation: Profile001)
(Begin postamble)
M5
G17 G90
M2
(Exported by FreeCAD)
(Post Processor: grbl_post)
(Output Time:2021-06-01 11:18:28.607921)
(Begin preamble)
G17 G90
G21
(Begin operation: Fixture)
(Path: Fixture)
G54
(Finish operation: Fixture)
(Begin operation: 6mm_Endmill_Adaptive)
(Path: 6mm_Endmill_Adaptive)
(6mm_Endmill_Adaptive)
(Begin toolchange)
( M6 T1.0 )
M3 S5000.0
(Finish operation: 6mm_Endmill_Adaptive)
(Begin operation: Adaptive)
(Path: Adaptive)
(Adaptive)
(Helix to depth: 0.000000)
G0 Z6.000
G0 X1.886 Y-1.204 Z6.000
G0 X1.886 Y-1.204 Z4.000
G1 X1.886 Y-1.204 Z1.000 F150.000
G1 X1.886 Y-1.204 Z1.000 F150.000
G1 X2.085 Y-0.813 Z0.961 F150.000
G1 X2.204 Y-0.391 Z0.923 F150.000
G1 X2.238 Y0.047 Z0.884 F150.000
G1 X2.186 Y0.482 Z0.846 F150.000
G1 X2.049 Y0.899 Z0.807 F150.000
G1 X1.835 Y1.282 Z0.768 F150.000
G1 X1.549 Y1.615 Z0.730 F150.000
G1 X1.204 Y1.886 Z0.691 F150.000
G1 X0.813 Y2.085 Z0.652 F150.000
G1 X0.391 Y2.204 Z0.614 F150.000
G1 X-0.047 Y2.238 Z0.575 F150.000
G1 X-0.482 Y2.186 Z0.537 F150.000
G1 X-0.899 Y2.049 Z0.498 F150.000
G1 X-1.282 Y1.835 Z0.459 F150.000
G1 X-1.615 Y1.549 Z0.421 F150.000
G1 X-1.886 Y1.204 Z0.382 F150.000
G1 X-2.085 Y0.813 Z0.343 F150.000
G1 X-2.204 Y0.391 Z0.305 F150.000
G1 X-2.238 Y-0.047 Z0.266 F150.000
G1 X-2.186 Y-0.482 Z0.228 F150.000
G1 X-2.049 Y-0.899 Z0.189 F150.000
G1 X-1.835 Y-1.282 Z0.150 F150.000
G1 X-1.549 Y-1.615 Z0.112 F150.000
G1 X-1.204 Y-1.886 Z0.073 F150.000
G1 X-0.813 Y-2.085 Z0.035 F150.000
G1 X-0.391 Y-2.204 Z0.000 F1500.000
G1 X0.047 Y-2.238 Z0.000 F1500.000
G1 X0.482 Y-2.186 Z0.000 F1500.000
G1 X0.899 Y-2.049 Z0.000 F1500.000
G1 X1.282 Y-1.835 Z0.000 F1500.000
G1 X1.615 Y-1.549 Z0.000 F1500.000
G1 X1.886 Y-1.204 Z0.000 F1500.000
G1 X2.085 Y-0.813 Z0.000 F1500.000
G1 X2.204 Y-0.391 Z0.000 F1500.000
G1 X2.238 Y0.047 Z0.000 F1500.000
G1 X2.186 Y0.482 Z0.000 F1500.000
G1 X2.049 Y0.899 Z0.000 F1500.000
G1 X1.835 Y1.282 Z0.000 F1500.000
G1 X1.549 Y1.615 Z0.000 F1500.000
G1 X1.204 Y1.886 Z0.000 F1500.000
G1 X0.813 Y2.085 Z0.000 F1500.000
G1 X0.391 Y2.204 Z0.000 F1500.000
G1 X-0.047 Y2.238 Z0.000 F1500.000
G1 X-0.482 Y2.186 Z0.000 F1500.000
G1 X-0.899 Y2.049 Z0.000 F1500.000
G1 X-1.282 Y1.835 Z0.000 F1500.000
G1 X-1.615 Y1.549 Z0.000 F1500.000
G1 X-1.886 Y1.204 Z0.000 F1500.000
G1 X-2.085 Y0.813 Z0.000 F1500.000
G1 X-2.204 Y0.391 Z0.000 F1500.000
G1 X-2.238 Y-0.047 Z0.000 F1500.000
G1 X-2.186 Y-0.482 Z0.000 F1500.000
G1 X-2.049 Y-0.899 Z0.000 F1500.000
G1 X-1.835 Y-1.282 Z0.000 F1500.000
G1 X-1.549 Y-1.615 Z0.000 F1500.000
G1 X-1.204 Y-1.886 Z0.000 F1500.000
G1 X-0.813 Y-2.085 Z0.000 F1500.000
(Adaptive - depth: 0.000000)
G1 X0.000 Y-2.248 F1500.000
G1 X0.041 Y-2.289 F1500.000
G1 X0.071 Y-2.338 F1500.000
G1 X0.079 Y-2.395 F1500.000
G1 X0.132 Y-2.500 F1500.000
G1 X0.165 Y-2.545 F1500.000
G1 X0.252 Y-2.617 F1500.000
G1 X0.553 Y-2.786 F1500.000
G1 X1.011 Y-2.925 F1500.000
G1 X1.327 Y-2.947 F1500.000
G1 X1.492 Y-2.936 F1500.000
G1 X1.872 Y-2.861 F1500.000
G1 X2.282 Y-2.718 F1500.000
G1 X2.553 Y-2.568 F1500.000
G1 X2.737 Y-2.440 F1500.000
G1 X3.098 Y-2.117 F1500.000
G1 X3.402 Y-1.741 F1500.000
G1 X3.564 Y-1.500 F1500.000
G1 X3.707 Y-1.218 F1500.000
G1 X3.883 Y-0.722 F1500.000
G1 X3.959 Y-0.327 F1500.000
G1 X3.989 Y-0.030 F1500.000
G1 X3.996 Y0.282 F1500.000
G1 X3.970 Y0.609 F1500.000
G1 X3.932 Y0.921 F1500.000
G1 X3.831 Y1.372 F1500.000
G1 X3.722 Y1.714 F1500.000
G1 X3.568 Y2.049 F1500.000
G1 X3.436 Y2.289 F1500.000
G1 X3.252 Y2.560 F1500.000
G1 X3.045 Y2.801 F1500.000
G1 X2.594 Y3.229 F1500.000
G1 X2.207 Y3.515 F1500.000
G1 X1.902 Y3.707 F1500.000
G1 X1.560 Y3.868 F1500.000
G1 X1.293 Y3.970 F1500.000
G1 X0.970 Y4.060 F1500.000
G1 X0.643 Y4.117 F1500.000
G1 X0.000 Y4.165 F1500.000
G1 X-0.477 Y4.143 F1500.000
G1 X-0.850 Y4.102 F1500.000
G1 X-1.237 Y4.008 F1500.000
G1 X-1.515 Y3.921 F1500.000
G1 X-1.838 Y3.786 F1500.000
G1 X-2.139 Y3.624 F1500.000
G1 X-2.414 Y3.447 F1500.000
G1 X-2.680 Y3.237 F1500.000
G1 X-2.925 Y3.008 F1500.000
G1 X-3.365 Y2.496 F1500.000
G1 X-3.632 Y2.098 F1500.000
G1 X-3.820 Y1.767 F1500.000
G1 X-3.966 Y1.398 F1500.000
G1 X-4.053 Y1.139 F1500.000
G1 X-4.128 Y0.808 F1500.000
G1 X-4.165 Y0.481 F1500.000
G1 X-4.184 Y-0.147 F1500.000
G1 X-4.139 Y-0.624 F1500.000
G1 X-4.079 Y-0.996 F1500.000
G1 X-3.966 Y-1.391 F1500.000
G1 X-3.865 Y-1.669 F1500.000
G1 X-3.718 Y-1.989 F1500.000
G1 X-3.541 Y-2.286 F1500.000
G1 X-3.350 Y-2.556 F1500.000
G1 X-2.910 Y-3.083 F1500.000
G1 X-2.586 Y-3.436 F1500.000
G1 X-2.233 Y-3.763 F1500.000
G1 X-1.857 Y-4.064 F1500.000
G1 X-1.530 Y-4.305 F1500.000
G1 X-1.105 Y-4.534 F1500.000
G1 X-0.820 Y-4.673 F1500.000
G1 X-0.444 Y-4.823 F1500.000
G1 X-0.056 Y-4.936 F1500.000
G1 X0.301 Y-5.015 F1500.000
G1 X0.684 Y-5.071 F1500.000
G1 X1.068 Y-5.094 F1500.000
G1 X1.447 Y-5.086 F1500.000
G1 X1.831 Y-5.049 F1500.000
G1 X2.207 Y-4.981 F1500.000
G1 X2.575 Y-4.887 F1500.000
G1 X2.936 Y-4.763 F1500.000
G1 X3.286 Y-4.613 F1500.000
G1 X3.624 Y-4.436 F1500.000
G1 X3.947 Y-4.233 F1500.000
G1 X4.256 Y-4.004 F1500.000
G1 X4.545 Y-3.752 F1500.000
G1 X4.812 Y-3.477 F1500.000
G1 X5.056 Y-3.184 F1500.000
G1 X5.278 Y-2.872 F1500.000
G1 X5.477 Y-2.541 F1500.000
G1 X5.650 Y-2.199 F1500.000
G1 X5.793 Y-1.842 F1500.000
G1 X5.910 Y-1.474 F1500.000
G1 X6.079 Y-0.722 F1500.000
G1 X6.135 Y-0.241 F1500.000
G1 X6.165 Y0.203 F1500.000
G1 X6.173 Y0.673 F1500.000
G1 X6.143 Y1.150 F1500.000
G1 X6.060 Y1.617 F1500.000
G1 X5.989 Y1.936 F1500.000
G1 X5.865 Y2.338 F1500.000
G1 X5.714 Y2.707 F1500.000
G1 X5.549 Y3.049 F1500.000
G1 X5.139 Y3.722 F1500.000
G1 X4.850 Y4.105 F1500.000
G1 X4.560 Y4.444 F1500.000
G1 X4.241 Y4.782 F1500.000
G1 X3.883 Y5.105 F1500.000
G1 X3.500 Y5.376 F1500.000
G1 X3.237 Y5.545 F1500.000
G1 X2.872 Y5.737 F1500.000
G1 X2.515 Y5.887 F1500.000
G1 X1.805 Y6.139 F1500.000
G1 X1.335 Y6.252 F1500.000
G1 X0.865 Y6.342 F1500.000
G1 X0.387 Y6.417 F1500.000
G1 X-0.090 Y6.455 F1500.000
G1 X-0.876 Y6.410 F1500.000
G1 X-1.316 Y6.338 F1500.000
G1 X-1.711 Y6.237 F1500.000
G1 X-2.071 Y6.124 F1500.000
G1 X-2.823 Y5.816 F1500.000
G1 X-3.248 Y5.590 F1500.000
G1 X-3.662 Y5.342 F1500.000
G1 X-4.049 Y5.056 F1500.000
G1 X-4.327 Y4.827 F1500.000
G1 X-4.647 Y4.523 F1500.000
G1 X-4.932 Y4.203 F1500.000
G1 X-5.184 Y3.880 F1500.000
G1 X-5.421 Y3.526 F1500.000
G1 X-5.632 Y3.162 F1500.000
G1 X-5.812 Y2.786 F1500.000
G1 X-5.966 Y2.395 F1500.000
G1 X-6.222 Y1.590 F1500.000
G1 X-6.323 Y1.120 F1500.000
G1 X-6.402 Y0.643 F1500.000
G1 X-6.436 Y0.162 F1500.000
G1 X-6.444 Y-0.218 F1500.000
G1 X-6.425 Y-0.680 F1500.000
G1 X-6.368 Y-1.132 F1500.000
G1 X-6.289 Y-1.556 F1500.000
G1 X-6.177 Y-1.992 F1500.000
G1 X-6.038 Y-2.417 F1500.000
G1 X-5.872 Y-2.827 F1500.000
G1 X-5.677 Y-3.229 F1500.000
G1 X-5.455 Y-3.613 F1500.000
G1 X-5.211 Y-3.981 F1500.000
G1 X-4.673 Y-4.688 F1500.000
G1 X-4.350 Y-5.041 F1500.000
G1 X-4.011 Y-5.383 F1500.000
G1 X-3.662 Y-5.714 F1500.000
G1 X-3.289 Y-6.019 F1500.000
G1 X-2.887 Y-6.286 F1500.000
G1 X-2.564 Y-6.489 F1500.000
G1 X-2.139 Y-6.714 F1500.000
G1 X-1.699 Y-6.906 F1500.000
G1 X-1.274 Y-7.068 F1500.000
G1 X-0.812 Y-7.207 F1500.000
G1 X-0.353 Y-7.312 F1500.000
G1 X0.105 Y-7.391 F1500.000
G1 X0.571 Y-7.440 F1500.000
G1 X1.038 Y-7.459 F1500.000
G1 X1.504 Y-7.447 F1500.000
G1 X1.970 Y-7.406 F1500.000
G1 X2.432 Y-7.335 F1500.000
G1 X2.891 Y-7.233 F1500.000
G1 X3.342 Y-7.102 F1500.000
G1 X3.782 Y-6.944 F1500.000
G1 X4.211 Y-6.756 F1500.000
G1 X4.628 Y-6.541 F1500.000
G1 X5.030 Y-6.301 F1500.000
G1 X5.417 Y-6.034 F1500.000
G1 X5.786 Y-5.744 F1500.000
G1 X6.135 Y-5.432 F1500.000
G1 X6.466 Y-5.098 F1500.000
G1 X6.774 Y-4.741 F1500.000
G1 X7.060 Y-4.365 F1500.000
G1 X7.320 Y-3.974 F1500.000
G1 X7.553 Y-3.568 F1500.000
G1 X7.759 Y-3.147 F1500.000
G1 X7.940 Y-2.711 F1500.000
G1 X8.244 Y-1.820 F1500.000
G1 X8.361 Y-1.350 F1500.000
G1 X8.455 Y-0.876 F1500.000
G1 X8.530 Y-0.398 F1500.000
G1 X8.575 Y0.079 F1500.000
G1 X8.602 Y0.556 F1500.000
G1 X8.602 Y1.034 F1500.000
G1 X8.545 Y1.511 F1500.000
G1 X8.492 Y1.857 F1500.000
G1 X8.387 Y2.327 F1500.000
G1 X8.252 Y2.759 F1500.000
G1 X7.947 Y3.575 F1500.000
G1 X7.737 Y4.008 F1500.000
G1 X7.511 Y4.432 F1500.000
G1 X7.271 Y4.850 F1500.000
G1 X7.004 Y5.248 F1500.000
G1 X6.718 Y5.635 F1500.000
G1 X6.414 Y6.008 F1500.000
G1 X6.090 Y6.365 F1500.000
G1 X5.752 Y6.707 F1500.000
G1 X5.376 Y7.008 F1500.000
G1 X5.075 Y7.233 F1500.000
G1 X4.673 Y7.496 F1500.000
G1 X4.256 Y7.722 F1500.000
G1 X3.425 Y8.120 F1500.000
G1 X2.974 Y8.289 F1500.000
G1 X2.515 Y8.444 F1500.000
G1 X2.053 Y8.583 F1500.000
G1 X1.583 Y8.692 F1500.000
G1 X1.109 Y8.782 F1500.000
G1 X0.632 Y8.850 F1500.000
G1 X0.150 Y8.895 F1500.000
G1 X-0.327 Y8.891 F1500.000
G1 X-0.729 Y8.876 F1500.000
G1 X-1.207 Y8.827 F1500.000
G1 X-1.680 Y8.744 F1500.000
G1 X-2.143 Y8.639 F1500.000
G1 X-2.602 Y8.504 F1500.000
G1 X-3.504 Y8.177 F1500.000
G1 X-3.940 Y7.977 F1500.000
G1 X-4.368 Y7.763 F1500.000
G1 X-4.793 Y7.538 F1500.000
G1 X-5.534 Y7.019 F1500.000
G1 X-5.906 Y6.714 F1500.000
G1 X-6.256 Y6.383 F1500.000
G1 X-6.590 Y6.038 F1500.000
G1 X-6.906 Y5.673 F1500.000
G1 X-7.199 Y5.289 F1500.000
G1 X-7.474 Y4.891 F1500.000
G1 X-7.722 Y4.477 F1500.000
G1 X-7.947 Y4.053 F1500.000
G1 X-8.150 Y3.617 F1500.000
G1 X-8.327 Y3.169 F1500.000
G1 X-8.477 Y2.711 F1500.000
G1 X-8.602 Y2.244 F1500.000
G1 X-8.699 Y1.771 F1500.000
G1 X-8.771 Y1.293 F1500.000
G1 X-8.861 Y0.331 F1500.000
G1 X-8.868 Y-0.147 F1500.000
G1 X-8.857 Y-0.624 F1500.000
G1 X-8.835 Y-1.102 F1500.000
G1 X-8.786 Y-1.579 F1500.000
G1 X-8.718 Y-2.053 F1500.000
G1 X-8.602 Y-2.519 F1500.000
G1 X-8.492 Y-2.910 F1500.000
G1 X-8.335 Y-3.365 F1500.000
G1 X-8.143 Y-3.805 F1500.000
G1 X-7.932 Y-4.237 F1500.000
G1 X-7.462 Y-5.075 F1500.000
G1 X-7.195 Y-5.474 F1500.000
G1 X-6.914 Y-5.865 F1500.000
G1 X-6.620 Y-6.248 F1500.000
G1 X-6.308 Y-6.613 F1500.000
G1 X-5.981 Y-6.966 F1500.000
G1 X-5.643 Y-7.308 F1500.000
G1 X-5.289 Y-7.632 F1500.000
G1 X-4.921 Y-7.944 F1500.000
G1 X-4.526 Y-8.218 F1500.000
G1 X-4.150 Y-8.466 F1500.000
G1 X-3.733 Y-8.707 F1500.000
G1 X-3.301 Y-8.921 F1500.000
G1 X-2.861 Y-9.117 F1500.000
G1 X-2.410 Y-9.286 F1500.000
G1 X-1.951 Y-9.429 F1500.000
G1 X-1.485 Y-9.549 F1500.000
G1 X-1.023 Y-9.684 F1500.000
G1 X-0.549 Y-9.782 F1500.000
G1 X-0.075 Y-9.868 F1500.000
G1 X0.402 Y-9.914 F1500.000
G1 X0.872 Y-9.947 F1500.000
G1 X1.350 Y-9.955 F1500.000
G1 X1.827 Y-9.932 F1500.000
G1 X2.305 Y-9.891 F1500.000
G1 X2.778 Y-9.827 F1500.000
G1 X3.248 Y-9.737 F1500.000
G1 X3.714 Y-9.624 F1500.000
G1 X4.173 Y-9.489 F1500.000
G1 X4.628 Y-9.331 F1500.000
G1 X5.071 Y-9.150 F1500.000
G1 X5.508 Y-8.947 F1500.000
G1 X5.932 Y-8.722 F1500.000
G1 X6.346 Y-8.477 F1500.000
G1 X6.748 Y-8.214 F1500.000
G1 X7.135 Y-7.929 F1500.000
G1 X7.508 Y-7.624 F1500.000
G1 X7.865 Y-7.301 F1500.000
G1 X8.207 Y-6.962 F1500.000
G1 X8.530 Y-6.605 F1500.000
G1 X8.835 Y-6.233 F1500.000
G1 X9.120 Y-5.846 F1500.000
G1 X9.387 Y-5.447 F1500.000
G1 X9.635 Y-5.034 F1500.000
G1 X9.861 Y-4.609 F1500.000
G1 X10.068 Y-4.173 F1500.000
G1 X10.252 Y-3.726 F1500.000
G1 X10.575 Y-2.816 F1500.000
G1 X10.707 Y-2.353 F1500.000
G1 X10.823 Y-1.887 F1500.000
G1 X10.929 Y-1.417 F1500.000
G1 X11.011 Y-0.944 F1500.000
G1 X11.079 Y-0.466 F1500.000
G1 X11.105 Y0.011 F1500.000
G1 X11.120 Y0.489 F1500.000
G1 X11.113 Y0.966 F1500.000
G1 X11.075 Y1.444 F1500.000
G1 X11.019 Y1.921 F1500.000
G1 X10.940 Y2.395 F1500.000
G1 X10.835 Y2.865 F1500.000
G1 X10.707 Y3.327 F1500.000
G1 X10.556 Y3.782 F1500.000
G1 X10.383 Y4.229 F1500.000
G1 X10.000 Y5.109 F1500.000
G1 X9.782 Y5.538 F1500.000
G1 X9.308 Y6.376 F1500.000
G1 X9.049 Y6.778 F1500.000
G1 X8.774 Y7.173 F1500.000
G1 X8.165 Y7.887 F1500.000
G1 X7.831 Y8.233 F1500.000
G1 X7.474 Y8.556 F1500.000
G1 X7.105 Y8.865 F1500.000
G1 X6.722 Y9.154 F1500.000
G1 X6.323 Y9.421 F1500.000
G1 X5.910 Y9.669 F1500.000
G1 X5.064 Y10.132 F1500.000
G1 X4.628 Y10.335 F1500.000
G1 X3.737 Y10.711 F1500.000
G1 X3.282 Y10.872 F1500.000
G1 X2.823 Y11.019 F1500.000
G1 X2.361 Y11.154 F1500.000
G1 X1.414 Y11.327 F1500.000
G1 X0.936 Y11.387 F1500.000
G1 X0.455 Y11.417 F1500.000
G1 X-0.023 Y11.432 F1500.000
G1 X-0.500 Y11.421 F1500.000
G1 X-0.977 Y11.387 F1500.000
G1 X-1.455 Y11.331 F1500.000
G1 X-1.929 Y11.252 F1500.000
G1 X-2.868 Y11.056 F1500.000
G1 X-3.331 Y10.929 F1500.000
G1 X-4.244 Y10.643 F1500.000
G1 X-4.695 Y10.474 F1500.000
G1 X-5.564 Y10.060 F1500.000
G1 X-5.985 Y9.827 F1500.000
G1 X-6.391 Y9.571 F1500.000
G1 X-6.789 Y9.301 F1500.000
G1 X-7.173 Y9.011 F1500.000
G1 X-7.541 Y8.703 F1500.000
G1 X-7.898 Y8.380 F1500.000
G1 X-8.241 Y8.041 F1500.000
G1 X-8.564 Y7.688 F1500.000
G1 X-8.872 Y7.320 F1500.000
G1 X-9.165 Y6.936 F1500.000
G1 X-9.440 Y6.541 F1500.000
G1 X-9.695 Y6.132 F1500.000
G1 X-9.932 Y5.711 F1500.000
G1 X-10.150 Y5.282 F1500.000
G1 X-10.350 Y4.842 F1500.000
G1 X-10.526 Y4.395 F1500.000
G1 X-10.850 Y3.485 F1500.000
G1 X-10.985 Y3.023 F1500.000
G1 X-11.226 Y2.086 F1500.000
G1 X-11.320 Y1.613 F1500.000
G1 X-11.421 Y0.650 F1500.000
G1 X-11.447 Y0.169 F1500.000
G1 X-11.444 Y-0.308 F1500.000
G1 X-11.425 Y-0.786 F1500.000
G1 X-11.383 Y-1.263 F1500.000
G1 X-11.320 Y-1.737 F1500.000
G1 X-11.237 Y-2.211 F1500.000
G1 X-11.030 Y-3.150 F1500.000
G1 X-10.898 Y-3.613 F1500.000
G1 X-10.605 Y-4.526 F1500.000
G1 X-10.432 Y-4.974 F1500.000
G1 X-10.015 Y-5.838 F1500.000
G1 X-9.782 Y-6.259 F1500.000
G1 X-9.526 Y-6.665 F1500.000
G1 X-9.256 Y-7.064 F1500.000
G1 X-8.966 Y-7.447 F1500.000
G1 X-8.361 Y-8.195 F1500.000
G1 X-8.038 Y-8.553 F1500.000
G1 X-7.707 Y-8.902 F1500.000
G1 X-7.368 Y-9.244 F1500.000
G1 X-7.015 Y-9.571 F1500.000
G1 X-6.259 Y-10.169 F1500.000
G1 X-5.865 Y-10.447 F1500.000
G1 X-5.455 Y-10.703 F1500.000
G1 X-5.038 Y-10.947 F1500.000
G1 X-4.609 Y-11.169 F1500.000
G1 X-4.173 Y-11.372 F1500.000
G1 X-3.729 Y-11.560 F1500.000
G1 X-3.278 Y-11.726 F1500.000
G1 X-2.820 Y-11.872 F1500.000
G1 X-2.353 Y-12.000 F1500.000
G1 X-1.895 Y-12.143 F1500.000
G1 X-0.955 Y-12.361 F1500.000
G1 X0.000 Y-12.489 F1500.000
G1 X0.477 Y-12.530 F1500.000
G1 X0.955 Y-12.545 F1500.000
G1 X1.432 Y-12.545 F1500.000
G1 X1.910 Y-12.523 F1500.000
G1 X2.387 Y-12.481 F1500.000
G1 X2.865 Y-12.421 F1500.000
G1 X3.338 Y-12.338 F1500.000
G1 X3.808 Y-12.237 F1500.000
G1 X4.274 Y-12.117 F1500.000
G1 X4.733 Y-11.977 F1500.000
G1 X5.188 Y-11.820 F1500.000
G1 X5.635 Y-11.643 F1500.000
G1 X6.515 Y-11.259 F1500.000
G1 X6.944 Y-11.045 F1500.000
G1 X7.789 Y-10.590 F1500.000
G1 X8.203 Y-10.342 F1500.000
G1 X8.977 Y-9.771 F1500.000
G1 X9.350 Y-9.466 F1500.000
G1 X9.703 Y-9.139 F1500.000
G1 X10.045 Y-8.801 F1500.000
G1 X10.372 Y-8.447 F1500.000
G1 X10.680 Y-8.079 F1500.000
G1 X10.974 Y-7.695 F1500.000
G1 X11.248 Y-7.301 F1500.000
G1 X11.504 Y-6.895 F1500.000
G1 X11.992 Y-6.064 F1500.000
G1 X12.421 Y-5.203 F1500.000
G1 X12.624 Y-4.767 F1500.000
G1 X12.808 Y-4.323 F1500.000
G1 X12.981 Y-3.872 F1500.000
G1 X13.143 Y-3.417 F1500.000
G1 X13.289 Y-2.959 F1500.000
G1 X13.508 Y-2.019 F1500.000
G1 X13.590 Y-1.545 F1500.000
G1 X13.650 Y-1.068 F1500.000
G1 X13.695 Y-0.586 F1500.000
G1 X13.718 Y-0.105 F1500.000
G1 X13.718 Y0.372 F1500.000
G1 X13.699 Y0.850 F1500.000
G1 X13.662 Y1.327 F1500.000
G1 X13.553 Y2.282 F1500.000
G1 X13.474 Y2.756 F1500.000
G1 X13.286 Y3.695 F1500.000
G1 X13.169 Y4.162 F1500.000
G1 X13.038 Y4.624 F1500.000
G1 X12.895 Y5.083 F1500.000
G1 X12.530 Y5.970 F1500.000
G1 X12.327 Y6.406 F1500.000
G1 X12.102 Y6.831 F1500.000
G1 X11.861 Y7.248 F1500.000
G1 X11.602 Y7.654 F1500.000
G1 X11.327 Y8.049 F1500.000
G1 X11.038 Y8.432 F1500.000
G1 X10.436 Y9.184 F1500.000
G1 X10.117 Y9.545 F1500.000
G1 X9.462 Y10.248 F1500.000
G1 X8.741 Y10.880 F1500.000
G1 X8.365 Y11.180 F1500.000
G1 X7.974 Y11.462 F1500.000
G1 X7.575 Y11.733 F1500.000
G1 X7.165 Y11.989 F1500.000
G1 X6.744 Y12.226 F1500.000
G1 X6.316 Y12.447 F1500.000
G1 X5.880 Y12.650 F1500.000
G1 X4.996 Y13.034 F1500.000
G1 X4.545 Y13.203 F1500.000
G1 X3.632 Y13.515 F1500.000
G1 X3.169 Y13.650 F1500.000
G1 X2.226 Y13.853 F1500.000
G1 X1.748 Y13.932 F1500.000
G1 X1.267 Y13.985 F1500.000
G1 X0.786 Y14.026 F1500.000
G1 X0.305 Y14.049 F1500.000
G1 X-0.173 Y14.049 F1500.000
G1 X-0.650 Y14.034 F1500.000
G1 X-1.128 Y14.000 F1500.000
G1 X-1.605 Y13.947 F1500.000
G1 X-2.079 Y13.876 F1500.000
G1 X-2.549 Y13.786 F1500.000
G1 X-3.023 Y13.711 F1500.000
G1 X-4.425 Y13.380 F1500.000
G1 X-4.887 Y13.248 F1500.000
G1 X-5.786 Y12.910 F1500.000
G1 X-6.226 Y12.722 F1500.000
G1 X-7.083 Y12.286 F1500.000
G1 X-7.500 Y12.045 F1500.000
G1 X-7.906 Y11.786 F1500.000
G1 X-8.301 Y11.515 F1500.000
G1 X-8.684 Y11.226 F1500.000
G1 X-9.056 Y10.921 F1500.000
G1 X-9.417 Y10.605 F1500.000
G1 X-9.767 Y10.274 F1500.000
G1 X-10.102 Y9.929 F1500.000
G1 X-10.425 Y9.571 F1500.000
G1 X-10.733 Y9.203 F1500.000
G1 X-11.026 Y8.823 F1500.000
G1 X-11.305 Y8.432 F1500.000
G1 X-11.568 Y8.030 F1500.000
G1 X-11.816 Y7.617 F1500.000
G1 X-12.289 Y6.778 F1500.000
G1 X-12.914 Y5.474 F1500.000
G1 X-13.102 Y5.030 F1500.000
G1 X-13.447 Y4.132 F1500.000
G1 X-13.707 Y3.203 F1500.000
G1 X-13.816 Y2.733 F1500.000
G1 X-13.902 Y2.259 F1500.000
G1 X-13.977 Y1.782 F1500.000
G1 X-14.034 Y1.301 F1500.000
G1 X-14.071 Y0.820 F1500.000
G1 X-14.090 Y0.338 F1500.000
G1 X-14.094 Y-0.139 F1500.000
G1 X-14.079 Y-0.617 F1500.000
G1 X-14.045 Y-1.094 F1500.000
G1 X-13.992 Y-1.571 F1500.000
G1 X-13.925 Y-2.045 F1500.000
G1 X-13.838 Y-2.515 F1500.000
G1 X-13.763 Y-2.989 F1500.000
G1 X-13.662 Y-3.459 F1500.000
G1 X-13.432 Y-4.391 F1500.000
G1 X-13.162 Y-5.312 F1500.000
G1 X-12.801 Y-6.199 F1500.000
G1 X-12.602 Y-6.635 F1500.000
G1 X-12.380 Y-7.060 F1500.000
G1 X-12.147 Y-7.481 F1500.000
G1 X-11.895 Y-7.891 F1500.000
G1 X-11.628 Y-8.289 F1500.000
G1 X-11.068 Y-9.075 F1500.000
G1 X-10.466 Y-9.823 F1500.000
G1 X-10.154 Y-10.192 F1500.000
G1 X-9.831 Y-10.549 F1500.000
G1 X-9.500 Y-10.898 F1500.000
G1 X-9.162 Y-11.241 F1500.000
G1 X-8.812 Y-11.571 F1500.000
G1 X-8.056 Y-12.169 F1500.000
G1 X-7.665 Y-12.451 F1500.000
G1 X-7.259 Y-12.711 F1500.000
G1 X-6.846 Y-12.959 F1500.000
G1 X-6.421 Y-13.188 F1500.000
G1 X-5.989 Y-13.398 F1500.000
G1 X-5.549 Y-13.594 F1500.000
G1 X-5.117 Y-13.805 F1500.000
G1 X-3.767 Y-14.335 F1500.000
G1 X-2.853 Y-14.643 F1500.000
G1 X-2.391 Y-14.786 F1500.000
G1 X-1.444 Y-14.989 F1500.000
G1 X-0.966 Y-15.071 F1500.000
G1 X-0.485 Y-15.128 F1500.000
G1 X-0.004 Y-15.173 F1500.000
G1 X0.474 Y-15.199 F1500.000
G1 X0.951 Y-15.207 F1500.000
G1 X1.429 Y-15.199 F1500.000
G1 X1.906 Y-15.173 F1500.000
G1 X2.383 Y-15.128 F1500.000
G1 X2.857 Y-15.064 F1500.000
G1 X3.331 Y-14.981 F1500.000
G1 X3.801 Y-14.883 F1500.000
G1 X4.271 Y-14.797 F1500.000
G1 X5.662 Y-14.440 F1500.000
G1 X6.575 Y-14.147 F1500.000
G1 X7.462 Y-13.774 F1500.000
G1 X7.898 Y-13.571 F1500.000
G1 X8.744 Y-13.113 F1500.000
G1 X9.154 Y-12.861 F1500.000
G1 X9.556 Y-12.594 F1500.000
G1 X9.947 Y-12.316 F1500.000
G1 X10.327 Y-12.023 F1500.000
G1 X10.699 Y-11.718 F1500.000
G1 X11.060 Y-11.398 F1500.000
G1 X11.410 Y-11.068 F1500.000
G1 X11.744 Y-10.722 F1500.000
G1 X12.068 Y-10.365 F1500.000
G1 X12.380 Y-9.996 F1500.000
G1 X12.699 Y-9.635 F1500.000
G1 X13.586 Y-8.496 F1500.000
G1 X13.865 Y-8.105 F1500.000
G1 X14.361 Y-7.278 F1500.000
G1 X14.590 Y-6.853 F1500.000
G1 X14.801 Y-6.417 F1500.000
G1 X15.000 Y-5.977 F1500.000
G1 X15.180 Y-5.530 F1500.000
G1 X15.346 Y-5.075 F1500.000
G1 X15.496 Y-4.617 F1500.000
G1 X15.658 Y-4.162 F1500.000
G1 X16.045 Y-2.767 F1500.000
G1 X16.154 Y-2.297 F1500.000
G1 X16.293 Y-1.342 F1500.000
G1 X16.342 Y-0.861 F1500.000
G1 X16.365 Y-0.380 F1500.000
G1 X16.376 Y0.098 F1500.000
G1 X16.368 Y0.575 F1500.000
G1 X16.342 Y1.053 F1500.000
G1 X16.297 Y1.530 F1500.000
G1 X16.267 Y2.008 F1500.000
G1 X16.068 Y3.432 F1500.000
G1 X15.981 Y3.902 F1500.000
G1 X15.778 Y4.842 F1500.000
G1 X15.492 Y5.759 F1500.000
G1 X15.331 Y6.211 F1500.000
G1 X15.150 Y6.654 F1500.000
G1 X14.959 Y7.094 F1500.000
G1 X14.752 Y7.526 F1500.000
G1 X14.526 Y7.951 F1500.000
G1 X14.289 Y8.368 F1500.000
G1 X14.038 Y8.778 F1500.000
G1 X13.771 Y9.177 F1500.000
G1 X13.489 Y9.568 F1500.000
G1 X13.218 Y9.962 F1500.000
G1 X12.323 Y11.094 F1500.000
G1 X11.688 Y11.816 F1500.000
G1 X10.989 Y12.477 F1500.000
G1 X10.624 Y12.793 F1500.000
G1 X9.861 Y13.380 F1500.000
G1 X9.462 Y13.654 F1500.000
G1 X9.056 Y13.914 F1500.000
G1 X8.233 Y14.410 F1500.000
G1 X7.380 Y14.861 F1500.000
G1 X6.947 Y15.079 F1500.000
G1 X6.064 Y15.470 F1500.000
G1 X5.617 Y15.654 F1500.000
G1 X5.165 Y15.827 F1500.000
G1 X4.252 Y16.143 F1500.000
G1 X3.312 Y16.368 F1500.000
G1 X2.838 Y16.462 F1500.000
G1 X2.361 Y16.530 F1500.000
G1 X1.880 Y16.586 F1500.000
G1 X1.398 Y16.624 F1500.000
G1 X0.917 Y16.643 F1500.000
G1 X0.436 Y16.680 F1500.000
G1 X-0.996 Y16.688 F1500.000
G1 X-1.951 Y16.643 F1500.000
G1 X-2.902 Y16.519 F1500.000
G1 X-3.376 Y16.436 F1500.000
G1 X-3.846 Y16.335 F1500.000
G1 X-4.312 Y16.222 F1500.000
G1 X-4.774 Y16.090 F1500.000
G1 X-5.229 Y15.944 F1500.000
G1 X-5.680 Y15.782 F1500.000
G1 X-6.128 Y15.605 F1500.000
G1 X-6.579 Y15.440 F1500.000
G1 X-7.898 Y14.861 F1500.000
G1 X-8.331 Y14.650 F1500.000
G1 X-9.162 Y14.165 F1500.000
G1 X-9.568 Y13.906 F1500.000
G1 X-10.346 Y13.342 F1500.000
G1 X-10.722 Y13.041 F1500.000
G1 X-11.086 Y12.729 F1500.000
G1 X-11.440 Y12.406 F1500.000
G1 X-11.782 Y12.068 F1500.000
G1 X-12.113 Y11.718 F1500.000
G1 X-12.432 Y11.357 F1500.000
G1 X-12.741 Y10.985 F1500.000
G1 X-13.034 Y10.605 F1500.000
G1 X-13.316 Y10.214 F1500.000
G1 X-13.583 Y9.816 F1500.000
G1 X-14.102 Y9.004 F1500.000
G1 X-14.808 Y7.744 F1500.000
G1 X-15.237 Y6.883 F1500.000
G1 X-15.440 Y6.447 F1500.000
G1 X-15.816 Y5.556 F1500.000
G1 X-16.109 Y4.639 F1500.000
G1 X-16.237 Y4.173 F1500.000
G1 X-16.342 Y3.703 F1500.000
G1 X-16.436 Y3.229 F1500.000
G1 X-16.511 Y2.752 F1500.000
G1 X-16.568 Y2.271 F1500.000
G1 X-16.609 Y1.789 F1500.000
G1 X-16.662 Y1.308 F1500.000
G1 X-16.722 Y-0.132 F1500.000
G1 X-16.714 Y-1.086 F1500.000
G1 X-16.699 Y-1.564 F1500.000
G1 X-16.594 Y-2.519 F1500.000
G1 X-16.526 Y-2.992 F1500.000
G1 X-16.436 Y-3.462 F1500.000
G1 X-16.335 Y-3.932 F1500.000
G1 X-16.218 Y-4.398 F1500.000
G1 X-16.083 Y-4.861 F1500.000
G1 X-15.936 Y-5.320 F1500.000
G1 X-15.801 Y-5.778 F1500.000
G1 X-15.305 Y-7.132 F1500.000
G1 X-15.124 Y-7.575 F1500.000
G1 X-14.695 Y-8.432 F1500.000
G1 X-14.462 Y-8.853 F1500.000
G1 X-13.951 Y-9.669 F1500.000
G1 X-13.677 Y-10.064 F1500.000
G1 X-13.387 Y-10.447 F1500.000
G1 X-13.086 Y-10.823 F1500.000
G1 X-12.801 Y-11.211 F1500.000
G1 X-11.868 Y-12.316 F1500.000
G1 X-11.545 Y-12.673 F1500.000
G1 X-10.853 Y-13.342 F1500.000
G1 X-10.496 Y-13.665 F1500.000
G1 X-9.748 Y-14.274 F1500.000
G1 X-9.361 Y-14.560 F1500.000
G1 X-8.966 Y-14.835 F1500.000
G1 X-8.564 Y-15.098 F1500.000
G1 X-8.154 Y-15.350 F1500.000
G1 X-7.737 Y-15.586 F1500.000
G1 X-7.312 Y-15.812 F1500.000
G1 X-6.880 Y-16.026 F1500.000
G1 X-6.440 Y-16.226 F1500.000
G1 X-5.996 Y-16.410 F1500.000
G1 X-5.545 Y-16.583 F1500.000
G1 X-5.090 Y-16.741 F1500.000
G1 X-4.632 Y-16.887 F1500.000
G1 X-4.177 Y-17.045 F1500.000
G1 X-2.782 Y-17.444 F1500.000
G1 X-2.312 Y-17.560 F1500.000
G1 X-1.365 Y-17.729 F1500.000
G1 X-0.887 Y-17.797 F1500.000
G1 X-0.406 Y-17.846 F1500.000
G1 X0.071 Y-17.883 F1500.000
G1 X0.549 Y-17.906 F1500.000
G1 X1.026 Y-17.914 F1500.000
G1 X1.504 Y-17.906 F1500.000
G1 X1.981 Y-17.883 F1500.000
G1 X2.459 Y-17.846 F1500.000
G1 X2.936 Y-17.797 F1500.000
G1 X3.410 Y-17.733 F1500.000
G1 X3.883 Y-17.654 F1500.000
G1 X4.353 Y-17.560 F1500.000
G1 X4.820 Y-17.451 F1500.000
G1 X5.282 Y-17.327 F1500.000
G1 X5.748 Y-17.218 F1500.000
G1 X7.128 Y-16.808 F1500.000
G1 X7.583 Y-16.658 F1500.000
G1 X8.470 Y-16.293 F1500.000
G1 X8.906 Y-16.094 F1500.000
G1 X9.759 Y-15.650 F1500.000
G1 X10.177 Y-15.410 F1500.000
G1 X10.583 Y-15.154 F1500.000
G1 X10.985 Y-14.887 F1500.000
G1 X11.376 Y-14.609 F1500.000
G1 X11.759 Y-14.320 F1500.000
G1 X12.132 Y-14.019 F1500.000
G1 X12.496 Y-13.703 F1500.000
G1 X12.850 Y-13.376 F1500.000
G1 X13.195 Y-13.041 F1500.000
G1 X13.530 Y-12.695 F1500.000
G1 X13.872 Y-12.357 F1500.000
G1 X14.831 Y-11.278 F1500.000
G1 X15.440 Y-10.530 F1500.000
G1 X15.737 Y-10.150 F1500.000
G1 X16.023 Y-9.763 F1500.000
G1 X16.530 Y-8.944 F1500.000
G1 X16.767 Y-8.523 F1500.000
G1 X17.188 Y-7.654 F1500.000
G1 X17.571 Y-6.771 F1500.000
G1 X18.071 Y-5.410 F1500.000
G1 X18.218 Y-4.951 F1500.000
G1 X18.481 Y-4.023 F1500.000
G1 X18.598 Y-3.553 F1500.000
G1 X18.801 Y-2.609 F1500.000
G1 X18.887 Y-2.135 F1500.000
G1 X18.962 Y-1.658 F1500.000
G1 X19.034 Y-0.695 F1500.000
G1 X19.049 Y-0.214 F1500.000
G1 X19.041 Y0.263 F1500.000
G1 X19.023 Y0.741 F1500.000
G1 X19.015 Y1.218 F1500.000
G1 X18.891 Y2.650 F1500.000
G1 X18.763 Y3.602 F1500.000
G1 X18.688 Y4.075 F1500.000
G1 X18.602 Y4.545 F1500.000
G1 X18.398 Y5.481 F1500.000
G1 X18.282 Y5.947 F1500.000
G1 X17.981 Y6.857 F1500.000
G1 X17.812 Y7.308 F1500.000
G1 X17.429 Y8.192 F1500.000
G1 X17.214 Y8.624 F1500.000
G1 X16.511 Y9.883 F1500.000
G1 X15.733 Y11.094 F1500.000
G1 X15.173 Y11.876 F1500.000
G1 X14.586 Y12.635 F1500.000
G1 X13.970 Y13.372 F1500.000
G1 X13.293 Y14.056 F1500.000
G1 X12.940 Y14.383 F1500.000
G1 X12.199 Y15.000 F1500.000
G1 X11.816 Y15.289 F1500.000
G1 X11.421 Y15.564 F1500.000
G1 X11.019 Y15.827 F1500.000
G1 X10.624 Y16.102 F1500.000
G1 X9.387 Y16.850 F1500.000
G1 X8.113 Y17.538 F1500.000
G1 X7.244 Y17.959 F1500.000
G1 X6.350 Y18.312 F1500.000
G1 X5.895 Y18.474 F1500.000
G1 X4.970 Y18.752 F1500.000
G1 X4.504 Y18.872 F1500.000
G1 X4.034 Y18.977 F1500.000
G1 X3.560 Y19.068 F1500.000
G1 X3.083 Y19.143 F1500.000
G1 X2.605 Y19.203 F1500.000
G1 X2.124 Y19.252 F1500.000
G1 X1.647 Y19.316 F1500.000
G1 X0.203 Y19.421 F1500.000
G1 X-0.752 Y19.455 F1500.000
G1 X-1.707 Y19.414 F1500.000
G1 X-2.184 Y19.376 F1500.000
G1 X-3.135 Y19.248 F1500.000
G1 X-3.609 Y19.165 F1500.000
G1 X-4.079 Y19.068 F1500.000
G1 X-4.545 Y18.955 F1500.000
G1 X-5.008 Y18.827 F1500.000
G1 X-5.466 Y18.684 F1500.000
G1 X-5.921 Y18.530 F1500.000
G1 X-6.383 Y18.395 F1500.000
G1 X-7.737 Y17.910 F1500.000
G1 X-8.184 Y17.737 F1500.000
G1 X-9.060 Y17.342 F1500.000
G1 X-9.492 Y17.132 F1500.000
G1 X-10.338 Y16.673 F1500.000
G1 X-10.752 Y16.429 F1500.000
G1 X-11.158 Y16.173 F1500.000
G1 X-11.925 Y15.594 F1500.000
G1 X-12.293 Y15.286 F1500.000
G1 X-12.647 Y14.959 F1500.000
G1 X-13.008 Y14.639 F1500.000
G1 X-13.346 Y14.297 F1500.000
G1 X-14.004 Y13.594 F1500.000
G1 X-14.620 Y12.857 F1500.000
G1 X-14.917 Y12.477 F1500.000
G1 X-15.203 Y12.090 F1500.000
G1 X-15.500 Y11.711 F1500.000
G1 X-16.327 Y10.526 F1500.000
G1 X-16.850 Y9.718 F1500.000
G1 X-17.316 Y8.876 F1500.000
G1 X-17.538 Y8.447 F1500.000
G1 X-17.936 Y7.571 F1500.000
G1 X-18.120 Y7.124 F1500.000
G1 X-18.289 Y6.673 F1500.000
G1 X-18.447 Y6.218 F1500.000
G1 X-18.594 Y5.759 F1500.000
G1 X-18.726 Y5.297 F1500.000
G1 X-18.846 Y4.831 F1500.000
G1 X-18.955 Y4.361 F1500.000
G1 X-19.049 Y3.887 F1500.000
G1 X-19.132 Y3.410 F1500.000
G1 X-19.199 Y2.932 F1500.000
G1 X-19.256 Y2.451 F1500.000
G1 X-19.297 Y1.970 F1500.000
G1 X-19.327 Y1.489 F1500.000
G1 X-19.372 Y1.008 F1500.000
G1 X-19.436 Y-0.432 F1500.000
G1 X-19.447 Y-0.910 F1500.000
G1 X-19.402 Y-1.865 F1500.000
G1 X-19.365 Y-2.342 F1500.000
G1 X-19.241 Y-3.293 F1500.000
G1 X-19.158 Y-3.767 F1500.000
G1 X-19.064 Y-4.237 F1500.000
G1 X-18.959 Y-4.703 F1500.000
G1 X-18.838 Y-5.165 F1500.000
G1 X-18.703 Y-5.628 F1500.000
G1 X-18.556 Y-6.083 F1500.000
G1 X-18.421 Y-6.541 F1500.000
G1 X-17.940 Y-7.898 F1500.000
G1 X-17.586 Y-8.789 F1500.000
G1 X-17.150 Y-9.647 F1500.000
G1 X-16.917 Y-10.068 F1500.000
G1 X-16.398 Y-10.876 F1500.000
G1 X-16.120 Y-11.267 F1500.000
G1 X-15.857 Y-11.669 F1500.000
G1 X-14.992 Y-12.823 F1500.000
G1 X-14.079 Y-13.940 F1500.000
G1 X-13.444 Y-14.658 F1500.000
G1 X-12.752 Y-15.327 F1500.000
G1 X-12.395 Y-15.650 F1500.000
G1 X-11.647 Y-16.256 F1500.000
G1 X-11.259 Y-16.541 F1500.000
G1 X-10.861 Y-16.816 F1500.000
G1 X-10.455 Y-17.079 F1500.000
G1 X-10.041 Y-17.327 F1500.000
G1 X-9.635 Y-17.586 F1500.000
G1 X-8.372 Y-18.286 F1500.000
G1 X-7.511 Y-18.714 F1500.000
G1 X-7.075 Y-18.921 F1500.000
G1 X-6.192 Y-19.305 F1500.000
G1 X-5.744 Y-19.485 F1500.000
G1 X-4.827 Y-19.778 F1500.000
G1 X-4.365 Y-19.910 F1500.000
G1 X-2.951 Y-20.233 F1500.000
G1 X-1.530 Y-20.489 F1500.000
G1 X-1.053 Y-20.556 F1500.000
G1 X-0.090 Y-20.632 F1500.000
G1 X0.387 Y-20.650 F1500.000
G1 X1.342 Y-20.643 F1500.000
G1 X1.820 Y-20.617 F1500.000
G1 X2.297 Y-20.575 F1500.000
G1 X2.774 Y-20.519 F1500.000
G1 X3.252 Y-20.474 F1500.000
G1 X4.673 Y-20.259 F1500.000
G1 X5.613 Y-20.075 F1500.000
G1 X6.083 Y-19.974 F1500.000
G1 X7.015 Y-19.741 F1500.000
G1 X7.477 Y-19.613 F1500.000
G1 X8.383 Y-19.297 F1500.000
G1 X8.831 Y-19.124 F1500.000
G1 X9.707 Y-18.733 F1500.000
G1 X10.135 Y-18.519 F1500.000
G1 X10.556 Y-18.289 F1500.000
G1 X10.974 Y-18.049 F1500.000
G1 X11.383 Y-17.793 F1500.000
G1 X11.801 Y-17.553 F1500.000
G1 X13.008 Y-16.767 F1500.000
G1 X13.402 Y-16.492 F1500.000
G1 X14.150 Y-15.887 F1500.000
G1 X14.515 Y-15.571 F1500.000
G1 X15.211 Y-14.906 F1500.000
G1 X15.541 Y-14.556 F1500.000
G1 X15.883 Y-14.218 F1500.000
G1 X16.853 Y-13.150 F1500.000
G1 X17.474 Y-12.410 F1500.000
G1 X17.774 Y-12.034 F1500.000
G1 X18.323 Y-11.241 F1500.000
G1 X18.586 Y-10.835 F1500.000
G1 X19.068 Y-9.996 F1500.000
G1 X19.289 Y-9.568 F1500.000
G1 X19.500 Y-9.135 F1500.000
G1 X19.699 Y-8.695 F1500.000
G1 X19.883 Y-8.252 F1500.000
G1 X20.056 Y-7.801 F1500.000
G1 X20.248 Y-7.357 F1500.000
G1 X20.744 Y-6.000 F1500.000
G1 X21.049 Y-5.083 F1500.000
G1 X21.289 Y-4.150 F1500.000
G1 X21.398 Y-3.680 F1500.000
G1 X21.571 Y-2.733 F1500.000
G1 X21.643 Y-2.256 F1500.000
G1 X21.699 Y-1.774 F1500.000
G1 X21.744 Y-1.293 F1500.000
G1 X21.778 Y-0.812 F1500.000
G1 X21.801 Y-0.331 F1500.000
G1 X21.812 Y0.147 F1500.000
G1 X21.808 Y0.624 F1500.000
G1 X21.793 Y1.102 F1500.000
G1 X21.767 Y1.579 F1500.000
G1 X21.726 Y2.056 F1500.000
G1 X21.673 Y2.534 F1500.000
G1 X21.609 Y3.008 F1500.000
G1 X21.556 Y3.485 F1500.000
G1 X21.335 Y4.906 F1500.000
G1 X21.158 Y5.846 F1500.000
G1 X20.898 Y6.771 F1500.000
G1 X20.756 Y7.229 F1500.000
G1 X20.417 Y8.128 F1500.000
G1 X20.229 Y8.571 F1500.000
G1 X20.026 Y9.008 F1500.000
G1 X19.812 Y9.436 F1500.000
G1 X19.609 Y9.872 F1500.000
G1 X18.925 Y11.139 F1500.000
G1 X18.180 Y12.376 F1500.000
G1 X17.654 Y13.177 F1500.000
G1 X17.102 Y13.962 F1500.000
G1 X16.481 Y14.699 F1500.000
G1 X16.158 Y15.056 F1500.000
G1 X15.820 Y15.398 F1500.000
G1 X15.474 Y15.733 F1500.000
G1 X15.117 Y16.056 F1500.000
G1 X14.748 Y16.368 F1500.000
G1 X14.372 Y16.669 F1500.000
G1 X14.008 Y16.985 F1500.000
G1 X12.857 Y17.861 F1500.000
G1 X11.673 Y18.695 F1500.000
G1 X10.865 Y19.222 F1500.000
G1 X10.023 Y19.688 F1500.000
G1 X9.594 Y19.906 F1500.000
G1 X8.714 Y20.305 F1500.000
G1 X8.267 Y20.485 F1500.000
G1 X7.816 Y20.650 F1500.000
G1 X7.361 Y20.805 F1500.000
G1 X6.898 Y20.947 F1500.000
G1 X6.444 Y21.105 F1500.000
G1 X5.056 Y21.508 F1500.000
G1 X4.124 Y21.744 F1500.000
G1 X3.173 Y21.906 F1500.000
G1 X2.695 Y21.974 F1500.000
G1 X1.733 Y22.060 F1500.000
G1 X1.252 Y22.117 F1500.000
G1 X-0.188 Y22.199 F1500.000
G1 X-0.665 Y22.214 F1500.000
G1 X-1.620 Y22.184 F1500.000
G1 X-2.098 Y22.154 F1500.000
G1 X-3.053 Y22.049 F1500.000
G1 X-3.526 Y21.977 F1500.000
G1 X-4.000 Y21.891 F1500.000
G1 X-4.470 Y21.793 F1500.000
G1 X-4.936 Y21.684 F1500.000
G1 X-5.398 Y21.560 F1500.000
G1 X-5.857 Y21.425 F1500.000
G1 X-6.323 Y21.308 F1500.000
G1 X-7.699 Y20.883 F1500.000
G1 X-8.609 Y20.575 F1500.000
G1 X-9.496 Y20.207 F1500.000
G1 X-9.936 Y20.011 F1500.000
G1 X-10.797 Y19.583 F1500.000
G1 X-11.218 Y19.353 F1500.000
G1 X-12.045 Y18.865 F1500.000
G1 X-12.451 Y18.605 F1500.000
G1 X-13.241 Y18.056 F1500.000
G1 X-14.000 Y17.470 F1500.000
G1 X-14.729 Y16.846 F1500.000
G1 X-15.083 Y16.519 F1500.000
G1 X-15.429 Y16.184 F1500.000
G1 X-15.767 Y15.842 F1500.000
G1 X-16.098 Y15.492 F1500.000
G1 X-16.417 Y15.135 F1500.000
G1 X-17.034 Y14.391 F1500.000
G1 X-17.613 Y13.620 F1500.000
G1 X-17.887 Y13.226 F1500.000
G1 X-18.406 Y12.414 F1500.000
G1 X-18.673 Y12.011 F1500.000
G1 X-19.417 Y10.771 F1500.000
G1 X-19.654 Y10.353 F1500.000
G1 X-20.086 Y9.492 F1500.000
G1 X-20.289 Y9.056 F1500.000
G1 X-20.662 Y8.165 F1500.000
G1 X-20.835 Y7.714 F1500.000
G1 X-20.996 Y7.259 F1500.000
G1 X-21.147 Y6.801 F1500.000
G1 X-21.286 Y6.338 F1500.000
G1 X-21.414 Y5.872 F1500.000
G1 X-21.530 Y5.402 F1500.000
G1 X-21.635 Y4.932 F1500.000
G1 X-21.729 Y4.459 F1500.000
G1 X-21.812 Y3.985 F1500.000
G1 X-21.883 Y3.508 F1500.000
G1 X-21.944 Y3.030 F1500.000
G1 X-21.992 Y2.549 F1500.000
G1 X-22.030 Y2.068 F1500.000
G1 X-22.083 Y1.586 F1500.000
G1 X-22.180 Y0.143 F1500.000
G1 X-22.203 Y-0.335 F1500.000
G1 X-22.192 Y-1.289 F1500.000
G1 X-22.173 Y-1.767 F1500.000
G1 X-22.094 Y-2.722 F1500.000
G1 X-22.038 Y-3.199 F1500.000
G1 X-21.970 Y-3.673 F1500.000
G1 X-21.891 Y-4.147 F1500.000
G1 X-21.801 Y-4.617 F1500.000
G1 X-21.699 Y-5.086 F1500.000
G1 X-21.586 Y-5.553 F1500.000
G1 X-21.462 Y-6.015 F1500.000
G1 X-21.327 Y-6.477 F1500.000
G1 X-21.180 Y-6.936 F1500.000
G1 X-21.023 Y-7.391 F1500.000
G1 X-20.853 Y-7.842 F1500.000
G1 X-20.699 Y-8.297 F1500.000
G1 X-20.173 Y-9.639 F1500.000
G1 X-19.989 Y-10.083 F1500.000
G1 X-19.556 Y-10.944 F1500.000
G1 X-19.327 Y-11.365 F1500.000
G1 X-18.827 Y-12.188 F1500.000
G1 X-18.564 Y-12.590 F1500.000
G1 X-18.000 Y-13.368 F1500.000
G1 X-17.729 Y-13.767 F1500.000
G1 X-16.857 Y-14.917 F1500.000
G1 X-16.256 Y-15.669 F1500.000
G1 X-15.605 Y-16.380 F1500.000
G1 X-15.271 Y-16.726 F1500.000
G1 X-14.575 Y-17.391 F1500.000
G1 X-14.214 Y-17.711 F1500.000
G1 X-13.470 Y-18.320 F1500.000
G1 X-13.086 Y-18.613 F1500.000
G1 X-12.301 Y-19.169 F1500.000
G1 X-11.898 Y-19.432 F1500.000
G1 X-11.071 Y-19.929 F1500.000
G1 X-10.650 Y-20.162 F1500.000
G1 X-10.237 Y-20.406 F1500.000
G1 X-8.959 Y-21.083 F1500.000
G1 X-7.658 Y-21.714 F1500.000
G1 X-6.759 Y-22.060 F1500.000
G1 X-6.305 Y-22.222 F1500.000
G1 X-5.380 Y-22.496 F1500.000
G1 X-4.914 Y-22.617 F1500.000
G1 X-4.444 Y-22.722 F1500.000
G1 X-3.977 Y-22.842 F1500.000
G1 X-2.556 Y-23.128 F1500.000
G1 X-2.079 Y-23.211 F1500.000
G1 X-1.117 Y-23.316 F1500.000
G1 X-0.635 Y-23.353 F1500.000
G1 X0.323 Y-23.383 F1500.000
G1 X0.801 Y-23.380 F1500.000
G1 X1.278 Y-23.361 F1500.000
G1 X1.756 Y-23.331 F1500.000
G1 X2.233 Y-23.289 F1500.000
G1 X2.711 Y-23.263 F1500.000
G1 X4.143 Y-23.113 F1500.000
G1 X5.568 Y-22.921 F1500.000
G1 X6.041 Y-22.846 F1500.000
G1 X6.977 Y-22.632 F1500.000
G1 X7.444 Y-22.511 F1500.000
G1 X8.361 Y-22.226 F1500.000
G1 X8.812 Y-22.068 F1500.000
G1 X9.259 Y-21.895 F1500.000
G1 X9.703 Y-21.711 F1500.000
G1 X10.143 Y-21.515 F1500.000
G1 X10.575 Y-21.308 F1500.000
G1 X11.004 Y-21.090 F1500.000
G1 X11.436 Y-20.883 F1500.000
G1 X12.703 Y-20.199 F1500.000
G1 X13.944 Y-19.466 F1500.000
G1 X14.350 Y-19.211 F1500.000
G1 X15.120 Y-18.635 F1500.000
G1 X15.496 Y-18.335 F1500.000
G1 X16.214 Y-17.695 F1500.000
G1 X16.560 Y-17.361 F1500.000
G1 X16.917 Y-17.041 F1500.000
G1 X17.936 Y-16.019 F1500.000
G1 X18.594 Y-15.316 F1500.000
G1 X19.237 Y-14.598 F1500.000
G1 X19.553 Y-14.233 F1500.000
G1 X20.132 Y-13.466 F1500.000
G1 X20.410 Y-13.075 F1500.000
G1 X20.932 Y-12.267 F1500.000
G1 X21.177 Y-11.853 F1500.000
G1 X21.635 Y-11.008 F1500.000
G1 X21.846 Y-10.575 F1500.000
G1 X22.045 Y-10.135 F1500.000
G1 X22.233 Y-9.692 F1500.000
G1 X22.436 Y-9.256 F1500.000
G1 X22.985 Y-7.914 F1500.000
G1 X23.492 Y-6.556 F1500.000
G1 X23.650 Y-6.102 F1500.000
G1 X23.898 Y-5.169 F1500.000
G1 X24.011 Y-4.699 F1500.000
G1 X24.188 Y-3.752 F1500.000
G1 X24.256 Y-3.274 F1500.000
G1 X24.308 Y-2.793 F1500.000
G1 X24.376 Y-2.316 F1500.000
G1 X24.500 Y-0.872 F1500.000
G1 X24.560 Y0.564 F1500.000
G1 X24.564 Y1.041 F1500.000
G1 X24.511 Y1.996 F1500.000
G1 X24.470 Y2.474 F1500.000
G1 X24.410 Y2.951 F1500.000
G1 X24.368 Y3.429 F1500.000
G1 X24.158 Y4.850 F1500.000
G1 X23.887 Y6.263 F1500.000
G1 X23.782 Y6.733 F1500.000
G1 X23.511 Y7.654 F1500.000
G1 X23.361 Y8.109 F1500.000
G1 X23.023 Y9.008 F1500.000
G1 X22.835 Y9.447 F1500.000
G1 X22.421 Y10.316 F1500.000
G1 X22.226 Y10.756 F1500.000
G1 X21.571 Y12.041 F1500.000
G1 X20.880 Y13.305 F1500.000
G1 X20.639 Y13.722 F1500.000
G1 X20.109 Y14.526 F1500.000
G1 X19.835 Y14.921 F1500.000
G1 X19.252 Y15.684 F1500.000
G1 X18.635 Y16.421 F1500.000
G1 X18.316 Y16.778 F1500.000
G1 X17.985 Y17.128 F1500.000
G1 X17.647 Y17.470 F1500.000
G1 X17.301 Y17.805 F1500.000
G1 X16.947 Y18.132 F1500.000
G1 X16.218 Y18.756 F1500.000
G1 X15.842 Y19.056 F1500.000
G1 X15.459 Y19.346 F1500.000
G1 X15.083 Y19.647 F1500.000
G1 X13.921 Y20.504 F1500.000
G1 X12.733 Y21.327 F1500.000
G1 X11.902 Y21.812 F1500.000
G1 X11.481 Y22.045 F1500.000
G1 X10.617 Y22.470 F1500.000
G1 X10.177 Y22.669 F1500.000
G1 X9.286 Y23.030 F1500.000
G1 X8.831 Y23.192 F1500.000
G1 X8.372 Y23.342 F1500.000
G1 X7.925 Y23.523 F1500.000
G1 X7.015 Y23.835 F1500.000
G1 X6.090 Y24.105 F1500.000
G1 X5.624 Y24.229 F1500.000
G1 X4.684 Y24.447 F1500.000
G1 X3.737 Y24.628 F1500.000
G1 X3.259 Y24.707 F1500.000
G1 X2.782 Y24.774 F1500.000
G1 X1.820 Y24.880 F1500.000
G1 X0.857 Y24.947 F1500.000
G1 X-0.102 Y24.977 F1500.000
G1 X-1.056 Y24.970 F1500.000
G1 X-2.011 Y24.925 F1500.000
G1 X-2.966 Y24.842 F1500.000
G1 X-3.917 Y24.722 F1500.000
G1 X-4.865 Y24.564 F1500.000
G1 X-5.805 Y24.368 F1500.000
G1 X-6.733 Y24.135 F1500.000
G1 X-7.654 Y23.865 F1500.000
G1 X-8.564 Y23.556 F1500.000
G1 X-9.015 Y23.391 F1500.000
G1 X-9.906 Y23.030 F1500.000
G1 X-10.346 Y22.838 F1500.000
G1 X-11.214 Y22.425 F1500.000
G1 X-11.643 Y22.207 F1500.000
G1 X-12.485 Y21.741 F1500.000
G1 X-13.308 Y21.244 F1500.000
G1 X-14.109 Y20.718 F1500.000
G1 X-14.891 Y20.154 F1500.000
G1 X-15.650 Y19.560 F1500.000
G1 X-16.387 Y18.936 F1500.000
G1 X-17.098 Y18.289 F1500.000
G1 X-17.444 Y17.955 F1500.000
G1 X-17.782 Y17.613 F1500.000
G1 X-18.436 Y16.910 F1500.000
G1 X-18.756 Y16.549 F1500.000
G1 X-19.372 Y15.808 F1500.000
G1 X-19.959 Y15.041 F1500.000
G1 X-20.515 Y14.252 F1500.000
G1 X-20.782 Y13.850 F1500.000
G1 X-21.286 Y13.030 F1500.000
G1 X-21.759 Y12.192 F1500.000
G1 X-21.985 Y11.767 F1500.000
G1 X-22.406 Y10.898 F1500.000
G1 X-22.797 Y10.015 F1500.000
G1 X-23.150 Y9.117 F1500.000
G1 X-23.466 Y8.203 F1500.000
G1 X-23.613 Y7.744 F1500.000
G1 X-23.774 Y7.289 F1500.000
G1 X-24.060 Y6.365 F1500.000
G1 X-24.293 Y5.429 F1500.000
G1 X-24.398 Y4.959 F1500.000
G1 X-24.575 Y4.011 F1500.000
G1 X-24.650 Y3.534 F1500.000
G1 X-24.714 Y3.056 F1500.000
G1 X-24.767 Y2.575 F1500.000
G1 X-24.842 Y1.613 F1500.000
G1 X-24.865 Y1.132 F1500.000
G1 X-24.876 Y0.650 F1500.000
G1 X-24.902 Y0.169 F1500.000
G1 X-24.925 Y-1.263 F1500.000
G1 X-24.925 Y-1.741 F1500.000
G1 X-24.872 Y-2.695 F1500.000
G1 X-24.835 Y-3.173 F1500.000
G1 X-24.726 Y-4.128 F1500.000
G1 X-24.654 Y-4.602 F1500.000
G1 X-24.481 Y-5.545 F1500.000
G1 X-24.380 Y-6.015 F1500.000
G1 X-24.267 Y-6.481 F1500.000
G1 X-24.011 Y-7.406 F1500.000
G1 X-23.868 Y-7.865 F1500.000
G1 X-23.553 Y-8.771 F1500.000
G1 X-23.380 Y-9.218 F1500.000
G1 X-23.004 Y-10.102 F1500.000
G1 X-22.590 Y-10.970 F1500.000
G1 X-22.368 Y-11.395 F1500.000
G1 X-22.162 Y-11.827 F1500.000
G1 X-21.485 Y-13.102 F1500.000
G1 X-21.015 Y-13.940 F1500.000
G1 X-20.485 Y-14.741 F1500.000
G1 X-20.211 Y-15.135 F1500.000
G1 X-19.620 Y-15.898 F1500.000
G1 X-19.335 Y-16.286 F1500.000
G1 X-18.414 Y-17.398 F1500.000
G1 X-17.455 Y-18.477 F1500.000
G1 X-17.124 Y-18.827 F1500.000
G1 X-16.421 Y-19.485 F1500.000
G1 X-16.060 Y-19.805 F1500.000
G1 X-15.312 Y-20.410 F1500.000
G1 X-14.929 Y-20.699 F1500.000
G1 X-14.135 Y-21.248 F1500.000
G1 X-13.729 Y-21.508 F1500.000
G1 X-13.331 Y-21.778 F1500.000
G1 X-12.094 Y-22.526 F1500.000
G1 X-10.831 Y-23.226 F1500.000
G1 X-9.541 Y-23.880 F1500.000
G1 X-8.669 Y-24.289 F1500.000
G1 X-8.229 Y-24.485 F1500.000
G1 X-7.320 Y-24.808 F1500.000
G1 X-6.861 Y-24.955 F1500.000
G1 X-5.929 Y-25.199 F1500.000
G1 X-5.466 Y-25.342 F1500.000
G1 X-4.060 Y-25.692 F1500.000
G1 X-3.590 Y-25.797 F1500.000
G1 X-2.635 Y-25.955 F1500.000
G1 X-2.158 Y-26.019 F1500.000
G1 X-1.195 Y-26.105 F1500.000
G1 X-0.714 Y-26.132 F1500.000
G1 X-0.233 Y-26.147 F1500.000
G1 X0.244 Y-26.150 F1500.000
G1 X0.722 Y-26.143 F1500.000
G1 X1.199 Y-26.120 F1500.000
G1 X1.677 Y-26.086 F1500.000
G1 X2.154 Y-26.083 F1500.000
G1 X3.109 Y-26.026 F1500.000
G1 X3.586 Y-26.008 F1500.000
G1 X4.064 Y-25.977 F1500.000
G1 X4.541 Y-25.917 F1500.000
G1 X5.019 Y-25.868 F1500.000
G1 X5.492 Y-25.805 F1500.000
G1 X6.440 Y-25.647 F1500.000
G1 X6.910 Y-25.556 F1500.000
G1 X7.846 Y-25.346 F1500.000
G1 X8.759 Y-25.053 F1500.000
G1 X9.211 Y-24.887 F1500.000
G1 X9.654 Y-24.699 F1500.000
G1 X10.105 Y-24.530 F1500.000
G1 X11.417 Y-23.929 F1500.000
G1 X11.861 Y-23.741 F1500.000
G1 X12.733 Y-23.338 F1500.000
G1 X13.590 Y-22.902 F1500.000
G1 X14.436 Y-22.444 F1500.000
G1 X14.853 Y-22.207 F1500.000
G1 X15.658 Y-21.673 F1500.000
G1 X16.049 Y-21.395 F1500.000
G1 X16.805 Y-20.801 F1500.000
G1 X17.173 Y-20.489 F1500.000
G1 X17.530 Y-20.165 F1500.000
G1 X17.902 Y-19.861 F1500.000
G1 X18.962 Y-18.880 F1500.000
G1 X19.992 Y-17.868 F1500.000
G1 X20.658 Y-17.173 F1500.000
G1 X21.308 Y-16.462 F1500.000
G1 X21.914 Y-15.714 F1500.000
G1 X22.207 Y-15.331 F1500.000
G1 X22.759 Y-14.545 F1500.000
G1 X23.023 Y-14.143 F1500.000
G1 X23.519 Y-13.316 F1500.000
G1 X23.752 Y-12.895 F1500.000
G1 X23.974 Y-12.466 F1500.000
G1 X24.184 Y-12.034 F1500.000
G1 X24.383 Y-11.594 F1500.000
G1 X24.598 Y-11.162 F1500.000
G1 X25.180 Y-9.842 F1500.000
G1 X25.722 Y-8.500 F1500.000
G1 X26.064 Y-7.598 F1500.000
G1 X26.226 Y-7.143 F1500.000
G1 X26.489 Y-6.214 F1500.000
G1 X26.609 Y-5.748 F1500.000
G1 X26.805 Y-4.801 F1500.000
G1 X26.883 Y-4.323 F1500.000
G1 X26.951 Y-3.846 F1500.000
G1 X27.008 Y-3.365 F1500.000
G1 X27.083 Y-2.887 F1500.000
G1 X27.229 Y-1.444 F1500.000
G1 X27.305 Y-0.481 F1500.000
G1 X27.316 Y0.477 F1500.000
G1 X27.312 Y0.955 F1500.000
G1 X27.259 Y1.910 F1500.000
G1 X27.218 Y2.387 F1500.000
G1 X27.192 Y2.865 F1500.000
G1 X27.045 Y4.297 F1500.000
G1 X26.857 Y5.722 F1500.000
G1 X26.665 Y6.662 F1500.000
G1 X26.556 Y7.128 F1500.000
G1 X26.301 Y8.053 F1500.000
G1 X26.158 Y8.511 F1500.000
G1 X26.004 Y8.966 F1500.000
G1 X25.838 Y9.417 F1500.000
G1 X25.662 Y9.865 F1500.000
G1 X25.474 Y10.308 F1500.000
G1 X25.068 Y11.177 F1500.000
G1 X24.876 Y11.617 F1500.000
G1 X24.244 Y12.914 F1500.000
G1 X23.583 Y14.195 F1500.000
G1 X23.353 Y14.620 F1500.000
G1 X22.850 Y15.440 F1500.000
G1 X22.590 Y15.842 F1500.000
G1 X22.038 Y16.628 F1500.000
G1 X21.451 Y17.387 F1500.000
G1 X21.147 Y17.759 F1500.000
G1 X20.831 Y18.124 F1500.000
G1 X20.508 Y18.481 F1500.000
G1 X20.177 Y18.831 F1500.000
G1 X19.838 Y19.173 F1500.000
G1 X19.492 Y19.508 F1500.000
G1 X19.139 Y19.835 F1500.000
G1 X18.778 Y20.154 F1500.000
G1 X18.038 Y20.771 F1500.000
G1 X17.677 Y21.090 F1500.000
G1 X15.793 Y22.590 F1500.000
G1 X15.414 Y22.883 F1500.000
G1 X14.620 Y23.425 F1500.000
G1 X14.218 Y23.688 F1500.000
G1 X13.391 Y24.188 F1500.000
G1 X12.970 Y24.425 F1500.000
G1 X12.117 Y24.868 F1500.000
G1 X11.244 Y25.282 F1500.000
G1 X10.353 Y25.658 F1500.000
G1 X9.447 Y25.996 F1500.000
G1 X8.534 Y26.297 F1500.000
G1 X8.071 Y26.436 F1500.000
G1 X7.605 Y26.564 F1500.000
G1 X6.669 Y26.789 F1500.000
G1 X6.207 Y26.929 F1500.000
G1 X5.271 Y27.165 F1500.000
G1 X4.323 Y27.357 F1500.000
G1 X3.850 Y27.444 F1500.000
G1 X2.895 Y27.583 F1500.000
G1 X2.417 Y27.643 F1500.000
G1 X1.455 Y27.733 F1500.000
G1 X0.974 Y27.767 F1500.000
G1 X0.011 Y27.805 F1500.000
G1 X-0.466 Y27.812 F1500.000
G1 X-1.421 Y27.797 F1500.000
G1 X-2.376 Y27.744 F1500.000
G1 X-2.853 Y27.707 F1500.000
G1 X-3.808 Y27.602 F1500.000
G1 X-4.756 Y27.466 F1500.000
G1 X-5.699 Y27.293 F1500.000
G1 X-6.169 Y27.195 F1500.000
G1 X-7.102 Y26.970 F1500.000
G1 X-8.026 Y26.714 F1500.000
G1 X-8.940 Y26.421 F1500.000
G1 X-9.846 Y26.098 F1500.000
G1 X-10.737 Y25.737 F1500.000
G1 X-11.613 Y25.346 F1500.000
G1 X-12.474 Y24.925 F1500.000
G1 X-13.320 Y24.474 F1500.000
G1 X-14.150 Y23.985 F1500.000
G1 X-14.962 Y23.466 F1500.000
G1 X-15.756 Y22.925 F1500.000
G1 X-16.526 Y22.353 F1500.000
G1 X-17.278 Y21.752 F1500.000
G1 X-17.647 Y21.440 F1500.000
G1 X-18.365 Y20.797 F1500.000
G1 X-18.714 Y20.466 F1500.000
G1 X-19.395 Y19.786 F1500.000
G1 X-19.744 Y19.455 F1500.000
G1 X-20.421 Y18.771 F1500.000
G1 X-21.064 Y18.056 F1500.000
G1 X-21.380 Y17.692 F1500.000
G1 X-21.985 Y16.944 F1500.000
G1 X-22.564 Y16.173 F1500.000
G1 X-23.113 Y15.380 F1500.000
G1 X-23.632 Y14.568 F1500.000
G1 X-24.120 Y13.737 F1500.000
G1 X-24.579 Y12.891 F1500.000
G1 X-25.008 Y12.030 F1500.000
G1 X-25.406 Y11.154 F1500.000
G1 X-25.767 Y10.263 F1500.000
G1 X-26.098 Y9.357 F1500.000
G1 X-26.252 Y8.898 F1500.000
G1 X-26.530 Y7.977 F1500.000
G1 X-26.778 Y7.045 F1500.000
G1 X-26.989 Y6.102 F1500.000
G1 X-27.083 Y5.628 F1500.000
G1 X-27.241 Y4.677 F1500.000
G1 X-27.308 Y4.199 F1500.000
G1 X-27.414 Y3.237 F1500.000
G1 X-27.477 Y2.759 F1500.000
G1 X-27.624 Y1.316 F1500.000
G1 X-27.707 Y0.353 F1500.000
G1 X-27.733 Y-1.079 F1500.000
G1 X-27.699 Y-2.034 F1500.000
G1 X-27.669 Y-2.511 F1500.000
G1 X-27.579 Y-3.466 F1500.000
G1 X-27.519 Y-3.944 F1500.000
G1 X-27.447 Y-4.417 F1500.000
G1 X-27.274 Y-5.361 F1500.000
G1 X-27.173 Y-5.831 F1500.000
G1 X-27.090 Y-6.305 F1500.000
G1 X-26.789 Y-7.714 F1500.000
G1 X-26.534 Y-8.639 F1500.000
G1 X-26.398 Y-9.098 F1500.000
G1 X-26.094 Y-10.008 F1500.000
G1 X-25.756 Y-10.906 F1500.000
G1 X-25.575 Y-11.350 F1500.000
G1 X-25.184 Y-12.226 F1500.000
G1 X-24.763 Y-13.086 F1500.000
G1 X-24.305 Y-13.932 F1500.000
G1 X-23.816 Y-14.759 F1500.000
G1 X-23.297 Y-15.568 F1500.000
G1 X-22.748 Y-16.353 F1500.000
G1 X-22.169 Y-17.120 F1500.000
G1 X-21.868 Y-17.496 F1500.000
G1 X-21.586 Y-17.883 F1500.000
G1 X-20.395 Y-19.391 F1500.000
G1 X-20.075 Y-19.748 F1500.000
G1 X-19.763 Y-20.113 F1500.000
G1 X-19.440 Y-20.470 F1500.000
G1 X-19.105 Y-20.816 F1500.000
G1 X-18.398 Y-21.470 F1500.000
G1 X-18.034 Y-21.782 F1500.000
G1 X-17.271 Y-22.368 F1500.000
G1 X-16.898 Y-22.673 F1500.000
G1 X-15.726 Y-23.519 F1500.000
G1 X-14.523 Y-24.320 F1500.000
G1 X-13.289 Y-25.075 F1500.000
G1 X-12.451 Y-25.553 F1500.000
G1 X-11.602 Y-26.008 F1500.000
G1 X-10.741 Y-26.440 F1500.000
G1 X-9.868 Y-26.850 F1500.000
G1 X-8.966 Y-27.188 F1500.000
G1 X-8.056 Y-27.504 F1500.000
G1 X-6.673 Y-27.929 F1500.000
G1 X-5.741 Y-28.177 F1500.000
G1 X-4.801 Y-28.402 F1500.000
G1 X-3.853 Y-28.598 F1500.000
G1 X-3.380 Y-28.684 F1500.000
G1 X-2.417 Y-28.793 F1500.000
G1 X-1.936 Y-28.835 F1500.000
G1 X-0.974 Y-28.865 F1500.000
G1 X-0.492 Y-28.898 F1500.000
G1 X0.944 Y-28.921 F1500.000
G1 X2.376 Y-28.902 F1500.000
G1 X3.808 Y-28.846 F1500.000
G1 X4.763 Y-28.782 F1500.000
G1 X5.711 Y-28.650 F1500.000
G1 X6.184 Y-28.571 F1500.000
G1 X7.124 Y-28.372 F1500.000
G1 X7.590 Y-28.256 F1500.000
G1 X8.511 Y-27.985 F1500.000
G1 X8.966 Y-27.831 F1500.000
G1 X9.425 Y-27.692 F1500.000
G1 X10.782 Y-27.211 F1500.000
G1 X12.124 Y-26.680 F1500.000
G1 X13.447 Y-26.109 F1500.000
G1 X14.320 Y-25.703 F1500.000
G1 X15.180 Y-25.278 F1500.000
G1 X16.004 Y-24.786 F1500.000
G1 X16.410 Y-24.526 F1500.000
G1 X17.188 Y-23.966 F1500.000
G1 X17.568 Y-23.669 F1500.000
G1 X17.959 Y-23.387 F1500.000
G1 X19.086 Y-22.485 F1500.000
G1 X20.180 Y-21.545 F1500.000
G1 X21.241 Y-20.571 F1500.000
G1 X21.929 Y-19.898 F1500.000
G1 X22.602 Y-19.211 F1500.000
G1 X23.259 Y-18.508 F1500.000
G1 X23.868 Y-17.763 F1500.000
G1 X24.162 Y-17.383 F1500.000
G1 X24.718 Y-16.598 F1500.000
G1 X24.981 Y-16.195 F1500.000
G1 X25.477 Y-15.368 F1500.000
G1 X25.711 Y-14.947 F1500.000
G1 X25.959 Y-14.534 F1500.000
G1 X26.643 Y-13.259 F1500.000
G1 X27.289 Y-11.966 F1500.000
G1 X27.898 Y-10.654 F1500.000
G1 X28.286 Y-9.771 F1500.000
G1 X28.470 Y-9.327 F1500.000
G1 X28.778 Y-8.414 F1500.000
G1 X28.921 Y-7.951 F1500.000
G1 X29.158 Y-7.015 F1500.000
G1 X29.259 Y-6.545 F1500.000
G1 X29.346 Y-6.071 F1500.000
G1 X29.451 Y-5.602 F1500.000
G1 X29.692 Y-4.169 F1500.000
G1 X29.883 Y-2.737 F1500.000
G1 X29.985 Y-1.774 F1500.000
G1 X30.064 Y-0.812 F1500.000
G1 X30.120 Y0.147 F1500.000
G1 X30.109 Y1.102 F1500.000
G1 X30.090 Y1.579 F1500.000
G1 X30.015 Y2.534 F1500.000
G1 X29.992 Y3.011 F1500.000
G1 X29.850 Y4.444 F1500.000
G1 X29.677 Y5.876 F1500.000
G1 X29.609 Y6.350 F1500.000
G1 X29.414 Y7.289 F1500.000
G1 X29.305 Y7.756 F1500.000
G1 X29.045 Y8.680 F1500.000
G1 X28.898 Y9.139 F1500.000
G1 X28.568 Y10.038 F1500.000
G1 X28.387 Y10.481 F1500.000
G1 X28.195 Y10.921 F1500.000
G1 X28.023 Y11.368 F1500.000
G1 X27.440 Y12.688 F1500.000
G1 X26.823 Y13.989 F1500.000
G1 X26.173 Y15.274 F1500.000
G1 X25.722 Y16.124 F1500.000
G1 X25.214 Y16.940 F1500.000
G1 X24.951 Y17.342 F1500.000
G1 X24.391 Y18.124 F1500.000
G1 X23.797 Y18.883 F1500.000
G1 X23.489 Y19.252 F1500.000
G1 X23.169 Y19.613 F1500.000
G1 X22.842 Y19.966 F1500.000
G1 X22.508 Y20.312 F1500.000
G1 X22.184 Y20.669 F1500.000
G1 X21.165 Y21.692 F1500.000
G1 X20.470 Y22.357 F1500.000
G1 X19.402 Y23.327 F1500.000
G1 X18.308 Y24.263 F1500.000
G1 X17.936 Y24.568 F1500.000
G1 X17.154 Y25.128 F1500.000
G1 X16.756 Y25.398 F1500.000
G1 X15.936 Y25.906 F1500.000
G1 X15.519 Y26.147 F1500.000
G1 X15.094 Y26.376 F1500.000
G1 X14.680 Y26.624 F1500.000
G1 X13.406 Y27.308 F1500.000
G1 X12.549 Y27.748 F1500.000
G1 X11.665 Y28.132 F1500.000
G1 X11.218 Y28.312 F1500.000
G1 X10.308 Y28.639 F1500.000
G1 X9.850 Y28.786 F1500.000
G1 X9.387 Y28.921 F1500.000
G1 X8.932 Y29.079 F1500.000
G1 X7.545 Y29.492 F1500.000
G1 X6.147 Y29.883 F1500.000
G1 X4.729 Y30.180 F1500.000
G1 X3.774 Y30.327 F1500.000
G1 X3.297 Y30.387 F1500.000
G1 X2.335 Y30.477 F1500.000
G1 X1.853 Y30.508 F1500.000
G1 X0.891 Y30.538 F1500.000
G1 X0.410 Y30.568 F1500.000
G1 X-1.500 Y30.613 F1500.000
G1 X-1.977 Y30.586 F1500.000
G1 X-2.455 Y30.571 F1500.000
G1 X-2.932 Y30.541 F1500.000
G1 X-3.887 Y30.444 F1500.000
G1 X-4.361 Y30.380 F1500.000
G1 X-5.308 Y30.222 F1500.000
G1 X-5.778 Y30.128 F1500.000
G1 X-6.714 Y29.910 F1500.000
G1 X-7.184 Y29.812 F1500.000
G1 X-8.583 Y29.462 F1500.000
G1 X-9.508 Y29.211 F1500.000
G1 X-10.414 Y28.895 F1500.000
G1 X-10.865 Y28.726 F1500.000
G1 X-11.748 Y28.353 F1500.000
G1 X-12.184 Y28.150 F1500.000
G1 X-12.613 Y27.936 F1500.000
G1 X-13.049 Y27.737 F1500.000
G1 X-14.335 Y27.083 F1500.000
G1 X-15.602 Y26.391 F1500.000
G1 X-16.414 Y25.876 F1500.000
G1 X-16.812 Y25.609 F1500.000
G1 X-17.590 Y25.041 F1500.000
G1 X-18.342 Y24.440 F1500.000
G1 X-18.707 Y24.128 F1500.000
G1 X-19.083 Y23.831 F1500.000
G1 X-20.538 Y22.568 F1500.000
G1 X-21.605 Y21.598 F1500.000
G1 X-22.278 Y20.910 F1500.000
G1 X-22.605 Y20.556 F1500.000
G1 X-23.233 Y19.827 F1500.000
G1 X-23.538 Y19.451 F1500.000
G1 X-24.117 Y18.684 F1500.000
G1 X-24.395 Y18.289 F1500.000
G1 X-24.688 Y17.910 F1500.000
G1 X-25.801 Y16.331 F1500.000
G1 X-26.549 Y15.094 F1500.000
G1 X-27.011 Y14.248 F1500.000
G1 X-27.440 Y13.383 F1500.000
G1 X-27.643 Y12.944 F1500.000
G1 X-28.019 Y12.053 F1500.000
G1 X-28.357 Y11.147 F1500.000
G1 X-28.515 Y10.692 F1500.000
G1 X-28.688 Y10.241 F1500.000
G1 X-29.150 Y8.868 F1500.000
G1 X-29.297 Y8.410 F1500.000
G1 X-29.538 Y7.477 F1500.000
G1 X-29.650 Y7.008 F1500.000
G1 X-29.835 Y6.060 F1500.000
G1 X-29.914 Y5.583 F1500.000
G1 X-30.041 Y4.628 F1500.000
G1 X-30.120 Y4.150 F1500.000
G1 X-30.305 Y2.718 F1500.000
G1 X-30.462 Y1.274 F1500.000
G1 X-30.508 Y0.312 F1500.000
G1 X-30.519 Y-0.165 F1500.000
G1 X-30.508 Y-1.120 F1500.000
G1 X-30.489 Y-1.598 F1500.000
G1 X-30.421 Y-2.553 F1500.000
G1 X-30.372 Y-3.030 F1500.000
G1 X-30.312 Y-3.508 F1500.000
G1 X-30.274 Y-3.985 F1500.000
G1 X-29.970 Y-6.365 F1500.000
G1 X-29.786 Y-7.305 F1500.000
G1 X-29.684 Y-7.774 F1500.000
G1 X-29.447 Y-8.707 F1500.000
G1 X-29.316 Y-9.169 F1500.000
G1 X-29.023 Y-10.083 F1500.000
G1 X-28.692 Y-10.981 F1500.000
G1 X-28.511 Y-11.425 F1500.000
G1 X-28.346 Y-11.876 F1500.000
G1 X-27.793 Y-13.207 F1500.000
G1 X-27.602 Y-13.647 F1500.000
G1 X-27.173 Y-14.508 F1500.000
G1 X-26.947 Y-14.932 F1500.000
G1 X-26.470 Y-15.767 F1500.000
G1 X-26.218 Y-16.177 F1500.000
G1 X-25.688 Y-16.977 F1500.000
G1 X-25.124 Y-17.756 F1500.000
G1 X-24.857 Y-18.154 F1500.000
G1 X-23.154 Y-20.481 F1500.000
G1 X-22.865 Y-20.865 F1500.000
G1 X-22.241 Y-21.594 F1500.000
G1 X-21.921 Y-21.955 F1500.000
G1 X-21.252 Y-22.647 F1500.000
G1 X-20.906 Y-22.981 F1500.000
G1 X-20.195 Y-23.632 F1500.000
G1 X-19.459 Y-24.248 F1500.000
G1 X-18.692 Y-24.835 F1500.000
G1 X-18.301 Y-25.117 F1500.000
G1 X-17.902 Y-25.387 F1500.000
G1 X-17.515 Y-25.673 F1500.000
G1 X-16.320 Y-26.481 F1500.000
G1 X-14.695 Y-27.519 F1500.000
G1 X-13.459 Y-28.263 F1500.000
G1 X-12.598 Y-28.699 F1500.000
G1 X-12.162 Y-28.906 F1500.000
G1 X-11.274 Y-29.278 F1500.000
G1 X-10.823 Y-29.451 F1500.000
G1 X-10.380 Y-29.639 F1500.000
G1 X-9.026 Y-30.147 F1500.000
G1 X-8.117 Y-30.466 F1500.000
G1 X-7.192 Y-30.733 F1500.000
G1 X-6.726 Y-30.857 F1500.000
G1 X-5.786 Y-31.068 F1500.000
G1 X-5.312 Y-31.158 F1500.000
G1 X-4.357 Y-31.308 F1500.000
G1 X-3.880 Y-31.368 F1500.000
G1 X-3.398 Y-31.417 F1500.000
G1 X-2.921 Y-31.489 F1500.000
G1 X-0.996 Y-31.688 F1500.000
G1 X-0.034 Y-31.741 F1500.000
G1 X0.444 Y-31.756 F1500.000
G1 X1.398 Y-31.759 F1500.000
G1 X2.353 Y-31.729 F1500.000
G1 X2.831 Y-31.703 F1500.000
G1 X3.786 Y-31.620 F1500.000
G1 X4.263 Y-31.568 F1500.000
G1 X4.741 Y-31.534 F1500.000
G1 X5.695 Y-31.432 F1500.000
G1 X7.117 Y-31.211 F1500.000
G1 X8.056 Y-31.019 F1500.000
G1 X8.523 Y-30.914 F1500.000
G1 X9.451 Y-30.673 F1500.000
G1 X10.372 Y-30.402 F1500.000
G1 X11.282 Y-30.102 F1500.000
G1 X12.180 Y-29.763 F1500.000
G1 X13.068 Y-29.395 F1500.000
G1 X13.944 Y-28.996 F1500.000
G1 X14.805 Y-28.568 F1500.000
G1 X15.650 Y-28.109 F1500.000
G1 X16.068 Y-27.868 F1500.000
G1 X16.492 Y-27.647 F1500.000
G1 X17.327 Y-27.173 F1500.000
G1 X18.541 Y-26.395 F1500.000
G1 X19.327 Y-25.842 F1500.000
G1 X20.094 Y-25.263 F1500.000
G1 X20.842 Y-24.658 F1500.000
G1 X21.568 Y-24.026 F1500.000
G1 X21.921 Y-23.699 F1500.000
G1 X22.286 Y-23.387 F1500.000
G1 X24.056 Y-21.763 F1500.000
G1 X24.383 Y-21.410 F1500.000
G1 X24.718 Y-21.064 F1500.000
G1 X25.045 Y-20.711 F1500.000
G1 X25.665 Y-19.974 F1500.000
G1 X25.966 Y-19.598 F1500.000
G1 X26.541 Y-18.827 F1500.000
G1 X27.083 Y-18.030 F1500.000
G1 X27.342 Y-17.624 F1500.000
G1 X27.831 Y-16.793 F1500.000
G1 X28.086 Y-16.383 F1500.000
G1 X28.801 Y-15.128 F1500.000
G1 X29.485 Y-13.853 F1500.000
G1 X30.357 Y-12.132 F1500.000
G1 X30.729 Y-11.244 F1500.000
G1 X30.906 Y-10.797 F1500.000
G1 X31.226 Y-9.887 F1500.000
G1 X31.372 Y-9.429 F1500.000
G1 X31.635 Y-8.500 F1500.000
G1 X31.752 Y-8.030 F1500.000
G1 X31.857 Y-7.560 F1500.000
G1 X31.951 Y-7.086 F1500.000
G1 X32.060 Y-6.617 F1500.000
G1 X32.335 Y-5.195 F1500.000
G1 X32.579 Y-3.767 F1500.000
G1 X32.789 Y-2.335 F1500.000
G1 X32.868 Y-1.372 F1500.000
G1 X32.898 Y-0.891 F1500.000
G1 X32.917 Y0.068 F1500.000
G1 X32.914 Y0.545 F1500.000
G1 X32.898 Y1.023 F1500.000
G1 X32.872 Y1.500 F1500.000
G1 X32.861 Y1.977 F1500.000
G1 X32.771 Y3.410 F1500.000
G1 X32.643 Y4.842 F1500.000
G1 X32.477 Y6.274 F1500.000
G1 X32.414 Y6.748 F1500.000
G1 X32.218 Y7.688 F1500.000
G1 X32.109 Y8.154 F1500.000
G1 X31.850 Y9.079 F1500.000
G1 X31.703 Y9.534 F1500.000
G1 X31.541 Y9.985 F1500.000
G1 X31.368 Y10.432 F1500.000
G1 X31.214 Y10.887 F1500.000
G1 X30.680 Y12.229 F1500.000
G1 X30.105 Y13.549 F1500.000
G1 X29.703 Y14.421 F1500.000
G1 X29.060 Y15.711 F1500.000
G1 X28.609 Y16.560 F1500.000
G1 X27.898 Y17.816 F1500.000
G1 X27.406 Y18.639 F1500.000
G1 X27.150 Y19.049 F1500.000
G1 X26.583 Y19.827 F1500.000
G1 X26.289 Y20.207 F1500.000
G1 X25.669 Y20.940 F1500.000
G1 X25.346 Y21.293 F1500.000
G1 X25.038 Y21.662 F1500.000
G1 X24.056 Y22.718 F1500.000
G1 X23.045 Y23.748 F1500.000
G1 X22.357 Y24.421 F1500.000
G1 X21.654 Y25.079 F1500.000
G1 X20.579 Y26.041 F1500.000
G1 X19.820 Y26.635 F1500.000
G1 X19.432 Y26.925 F1500.000
G1 X18.639 Y27.470 F1500.000
G1 X17.820 Y27.981 F1500.000
G1 X17.402 Y28.222 F1500.000
G1 X16.996 Y28.481 F1500.000
G1 X15.748 Y29.214 F1500.000
G1 X14.492 Y29.925 F1500.000
G1 X14.056 Y30.128 F1500.000
G1 X13.624 Y30.342 F1500.000
G1 X13.184 Y30.541 F1500.000
G1 X12.289 Y30.906 F1500.000
G1 X11.838 Y31.075 F1500.000
G1 X10.925 Y31.383 F1500.000
G1 X10.474 Y31.553 F1500.000
G1 X8.635 Y32.139 F1500.000
G1 X7.248 Y32.553 F1500.000
G1 X6.308 Y32.767 F1500.000
G1 X5.835 Y32.865 F1500.000
G1 X4.880 Y33.026 F1500.000
G1 X4.402 Y33.090 F1500.000
G1 X3.440 Y33.188 F1500.000
G1 X2.959 Y33.222 F1500.000
G1 X2.477 Y33.278 F1500.000
G1 X0.553 Y33.429 F1500.000
G1 X-0.883 Y33.455 F1500.000
G1 X-1.838 Y33.429 F1500.000
G1 X-2.793 Y33.368 F1500.000
G1 X-3.748 Y33.278 F1500.000
G1 X-4.699 Y33.150 F1500.000
G1 X-5.647 Y32.992 F1500.000
G1 X-6.586 Y32.797 F1500.000
G1 X-7.053 Y32.688 F1500.000
G1 X-7.523 Y32.598 F1500.000
G1 X-8.455 Y32.380 F1500.000
G1 X-8.925 Y32.278 F1500.000
G1 X-9.391 Y32.165 F1500.000
G1 X-10.771 Y31.752 F1500.000
G1 X-11.673 Y31.432 F1500.000
G1 X-12.564 Y31.079 F1500.000
G1 X-13.004 Y30.891 F1500.000
G1 X-13.872 Y30.485 F1500.000
G1 X-14.726 Y30.049 F1500.000
G1 X-15.564 Y29.575 F1500.000
G1 X-15.989 Y29.353 F1500.000
G1 X-17.654 Y28.391 F1500.000
G1 X-18.455 Y27.857 F1500.000
G1 X-18.850 Y27.583 F1500.000
G1 X-19.620 Y27.008 F1500.000
G1 X-20.365 Y26.398 F1500.000
G1 X-20.729 Y26.086 F1500.000
G1 X-21.109 Y25.789 F1500.000
G1 X-22.936 Y24.226 F1500.000
G1 X-23.624 Y23.553 F1500.000
G1 X-23.962 Y23.211 F1500.000
G1 X-24.613 Y22.500 F1500.000
G1 X-25.237 Y21.763 F1500.000
G1 X-25.831 Y21.004 F1500.000
G1 X-26.117 Y20.617 F1500.000
G1 X-26.421 Y20.244 F1500.000
G1 X-27.861 Y18.312 F1500.000
G1 X-28.387 Y17.504 F1500.000
G1 X-28.643 Y17.094 F1500.000
G1 X-29.120 Y16.259 F1500.000
G1 X-29.350 Y15.835 F1500.000
G1 X-29.778 Y14.974 F1500.000
G1 X-29.981 Y14.534 F1500.000
G1 X-30.357 Y13.643 F1500.000
G1 X-30.530 Y13.192 F1500.000
G1 X-30.718 Y12.748 F1500.000
G1 X-31.233 Y11.395 F1500.000
G1 X-31.714 Y10.030 F1500.000
G1 X-31.868 Y9.571 F1500.000
G1 X-32.128 Y8.643 F1500.000
G1 X-32.248 Y8.177 F1500.000
G1 X-32.455 Y7.233 F1500.000
G1 X-32.545 Y6.759 F1500.000
G1 X-32.695 Y5.805 F1500.000
G1 X-32.786 Y5.331 F1500.000
G1 X-33.004 Y3.898 F1500.000
G1 X-33.195 Y2.466 F1500.000
G1 X-33.301 Y1.023 F1500.000
G1 X-33.320 Y0.060 F1500.000
G1 X-33.320 Y-0.417 F1500.000
G1 X-33.289 Y-1.372 F1500.000
G1 X-33.222 Y-2.327 F1500.000
G1 X-33.199 Y-2.805 F1500.000
G1 X-33.034 Y-4.714 F1500.000
G1 X-32.883 Y-6.147 F1500.000
G1 X-32.718 Y-7.094 F1500.000
G1 X-32.628 Y-7.564 F1500.000
G1 X-32.406 Y-8.496 F1500.000
G1 X-32.282 Y-8.959 F1500.000
G1 X-32.004 Y-9.876 F1500.000
G1 X-31.850 Y-10.331 F1500.000
G1 X-31.711 Y-10.789 F1500.000
G1 X-31.241 Y-12.154 F1500.000
G1 X-30.741 Y-13.508 F1500.000
G1 X-30.568 Y-13.955 F1500.000
G1 X-30.165 Y-14.827 F1500.000
G1 X-29.955 Y-15.259 F1500.000
G1 X-29.500 Y-16.105 F1500.000
G1 X-29.004 Y-16.929 F1500.000
G1 X-28.741 Y-17.331 F1500.000
G1 X-28.496 Y-17.744 F1500.000
G1 X-27.444 Y-19.353 F1500.000
G1 X-26.350 Y-20.940 F1500.000
G1 X-25.504 Y-22.109 F1500.000
G1 X-24.579 Y-23.214 F1500.000
G1 X-23.929 Y-23.921 F1500.000
G1 X-23.594 Y-24.267 F1500.000
G1 X-22.898 Y-24.932 F1500.000
G1 X-22.541 Y-25.256 F1500.000
G1 X-21.808 Y-25.880 F1500.000
G1 X-21.049 Y-26.474 F1500.000
G1 X-20.677 Y-26.778 F1500.000
G1 X-19.526 Y-27.654 F1500.000
G1 X-17.970 Y-28.786 F1500.000
G1 X-16.782 Y-29.609 F1500.000
G1 X-15.959 Y-30.105 F1500.000
G1 X-15.541 Y-30.346 F1500.000
G1 X-14.688 Y-30.793 F1500.000
G1 X-13.820 Y-31.207 F1500.000
G1 X-13.380 Y-31.402 F1500.000
G1 X-12.932 Y-31.586 F1500.000
G1 X-12.496 Y-31.793 F1500.000
G1 X-11.609 Y-32.169 F1500.000
G1 X-11.169 Y-32.365 F1500.000
G1 X-10.282 Y-32.733 F1500.000
G1 X-8.910 Y-33.199 F1500.000
G1 X-7.981 Y-33.462 F1500.000
G1 X-7.515 Y-33.583 F1500.000
G1 X-7.045 Y-33.692 F1500.000
G1 X-6.098 Y-33.880 F1500.000
G1 X-5.620 Y-33.959 F1500.000
G1 X-4.665 Y-34.086 F1500.000
G1 X-4.192 Y-34.169 F1500.000
G1 X-2.282 Y-34.429 F1500.000
G1 X-0.838 Y-34.545 F1500.000
G1 X0.120 Y-34.586 F1500.000
G1 X0.598 Y-34.598 F1500.000
G1 X1.553 Y-34.594 F1500.000
G1 X2.508 Y-34.564 F1500.000
G1 X3.462 Y-34.504 F1500.000
G1 X4.417 Y-34.414 F1500.000
G1 X5.368 Y-34.286 F1500.000
G1 X5.842 Y-34.211 F1500.000
G1 X6.320 Y-34.154 F1500.000
G1 X8.214 Y-33.876 F1500.000
G1 X8.680 Y-33.771 F1500.000
G1 X9.150 Y-33.677 F1500.000
G1 X9.617 Y-33.568 F1500.000
G1 X10.541 Y-33.312 F1500.000
G1 X11.455 Y-33.019 F1500.000
G1 X11.906 Y-32.861 F1500.000
G1 X12.353 Y-32.692 F1500.000
G1 X13.237 Y-32.323 F1500.000
G1 X13.684 Y-32.150 F1500.000
G1 X15.887 Y-31.188 F1500.000
G1 X16.323 Y-30.989 F1500.000
G1 X17.590 Y-30.305 F1500.000
G1 X18.410 Y-29.805 F1500.000
G1 X19.211 Y-29.271 F1500.000
G1 X19.620 Y-29.019 F1500.000
G1 X21.605 Y-27.662 F1500.000
G1 X22.361 Y-27.064 F1500.000
G1 X22.729 Y-26.756 F1500.000
G1 X23.444 Y-26.113 F1500.000
G1 X23.816 Y-25.808 F1500.000
G1 X25.605 Y-24.203 F1500.000
G1 X26.278 Y-23.515 F1500.000
G1 X26.609 Y-23.165 F1500.000
G1 X27.248 Y-22.444 F1500.000
G1 X27.857 Y-21.699 F1500.000
G1 X28.444 Y-20.932 F1500.000
G1 X29.000 Y-20.147 F1500.000
G1 X29.526 Y-19.338 F1500.000
G1 X29.778 Y-18.925 F1500.000
G1 X30.045 Y-18.523 F1500.000
G1 X31.549 Y-16.053 F1500.000
G1 X31.793 Y-15.639 F1500.000
G1 X32.451 Y-14.346 F1500.000
G1 X32.842 Y-13.466 F1500.000
G1 X33.026 Y-13.019 F1500.000
G1 X33.365 Y-12.117 F1500.000
G1 X33.665 Y-11.203 F1500.000
G1 X33.827 Y-10.748 F1500.000
G1 X34.398 Y-8.910 F1500.000
G1 X34.534 Y-8.447 F1500.000
G1 X34.756 Y-7.508 F1500.000
G1 X34.857 Y-7.038 F1500.000
G1 X35.026 Y-6.090 F1500.000
G1 X35.124 Y-5.617 F1500.000
G1 X35.440 Y-3.707 F1500.000
G1 X35.583 Y-2.752 F1500.000
G1 X35.688 Y-1.308 F1500.000
G1 X35.707 Y-0.346 F1500.000
G1 X35.699 Y0.132 F1500.000
G1 X35.680 Y0.609 F1500.000
G1 X35.684 Y1.086 F1500.000
G1 X35.568 Y3.951 F1500.000
G1 X35.474 Y5.383 F1500.000
G1 X35.274 Y6.808 F1500.000
G1 X35.098 Y7.748 F1500.000
G1 X34.996 Y8.218 F1500.000
G1 X34.883 Y8.684 F1500.000
G1 X34.628 Y9.609 F1500.000
G1 X34.335 Y10.523 F1500.000
G1 X34.173 Y10.974 F1500.000
G1 X34.000 Y11.421 F1500.000
G1 X33.842 Y11.876 F1500.000
G1 X33.320 Y13.218 F1500.000
G1 X32.763 Y14.549 F1500.000
G1 X32.177 Y15.865 F1500.000
G1 X31.556 Y17.165 F1500.000
G1 X30.902 Y18.447 F1500.000
G1 X30.402 Y19.271 F1500.000
G1 X30.143 Y19.673 F1500.000
G1 X29.583 Y20.455 F1500.000
G1 X29.289 Y20.835 F1500.000
G1 X29.008 Y21.226 F1500.000
G1 X28.109 Y22.357 F1500.000
G1 X27.173 Y23.455 F1500.000
G1 X26.203 Y24.523 F1500.000
G1 X25.538 Y25.218 F1500.000
G1 X24.850 Y25.895 F1500.000
G1 X24.147 Y26.553 F1500.000
G1 X23.429 Y27.195 F1500.000
G1 X22.327 Y28.132 F1500.000
G1 X21.579 Y28.737 F1500.000
G1 X20.429 Y29.605 F1500.000
G1 X19.244 Y30.440 F1500.000
G1 X18.038 Y31.229 F1500.000
G1 X17.214 Y31.733 F1500.000
G1 X16.361 Y32.180 F1500.000
G1 X15.929 Y32.391 F1500.000
G1 X15.045 Y32.774 F1500.000
G1 X14.609 Y32.981 F1500.000
G1 X13.271 Y33.534 F1500.000
G1 X11.917 Y34.053 F1500.000
G1 X10.553 Y34.538 F1500.000
G1 X9.177 Y34.989 F1500.000
G1 X8.241 Y35.226 F1500.000
G1 X7.771 Y35.335 F1500.000
G1 X6.823 Y35.511 F1500.000
G1 X6.346 Y35.583 F1500.000
G1 X5.872 Y35.680 F1500.000
G1 X3.489 Y36.068 F1500.000
G1 X2.045 Y36.207 F1500.000
G1 X1.083 Y36.248 F1500.000
G1 X0.602 Y36.256 F1500.000
G1 X-0.357 Y36.241 F1500.000
G1 X-0.835 Y36.252 F1500.000
G1 X-2.744 Y36.222 F1500.000
G1 X-3.222 Y36.177 F1500.000
G1 X-3.699 Y36.143 F1500.000
G1 X-4.177 Y36.094 F1500.000
G1 X-5.124 Y35.962 F1500.000
G1 X-6.068 Y35.789 F1500.000
G1 X-6.538 Y35.688 F1500.000
G1 X-7.011 Y35.609 F1500.000
G1 X-9.361 Y35.117 F1500.000
G1 X-10.286 Y34.865 F1500.000
G1 X-10.748 Y34.729 F1500.000
G1 X-11.658 Y34.429 F1500.000
G1 X-12.109 Y34.267 F1500.000
G1 X-13.004 Y33.917 F1500.000
G1 X-13.887 Y33.534 F1500.000
G1 X-14.756 Y33.120 F1500.000
G1 X-15.184 Y32.902 F1500.000
G1 X-15.620 Y32.699 F1500.000
G1 X-16.906 Y32.041 F1500.000
G1 X-18.602 Y31.135 F1500.000
G1 X-19.417 Y30.624 F1500.000
G1 X-19.820 Y30.361 F1500.000
G1 X-20.602 Y29.801 F1500.000
G1 X-20.985 Y29.511 F1500.000
G1 X-21.733 Y28.902 F1500.000
G1 X-22.117 Y28.613 F1500.000
G1 X-24.327 Y26.756 F1500.000
G1 X-25.053 Y26.124 F1500.000
G1 X-25.387 Y25.778 F1500.000
G1 X-25.729 Y25.440 F1500.000
G1 X-26.060 Y25.090 F1500.000
G1 X-26.692 Y24.365 F1500.000
G1 X-26.996 Y23.992 F1500.000
G1 X-27.312 Y23.632 F1500.000
G1 X-28.218 Y22.504 F1500.000
G1 X-29.098 Y21.357 F1500.000
G1 X-29.951 Y20.192 F1500.000
G1 X-30.774 Y19.004 F1500.000
G1 X-31.271 Y18.177 F1500.000
G1 X-31.511 Y17.759 F1500.000
G1 X-31.959 Y16.906 F1500.000
G1 X-32.169 Y16.470 F1500.000
G1 X-32.560 Y15.586 F1500.000
G1 X-32.741 Y15.139 F1500.000
G1 X-32.940 Y14.699 F1500.000
G1 X-33.301 Y13.805 F1500.000
G1 X-33.489 Y13.361 F1500.000
G1 X-34.192 Y11.568 F1500.000
G1 X-34.624 Y10.184 F1500.000
G1 X-34.865 Y9.252 F1500.000
G1 X-34.974 Y8.782 F1500.000
G1 X-35.162 Y7.835 F1500.000
G1 X-35.267 Y7.365 F1500.000
G1 X-35.526 Y5.944 F1500.000
G1 X-35.831 Y4.034 F1500.000
G1 X-36.030 Y2.602 F1500.000
G1 X-36.094 Y1.639 F1500.000
G1 X-36.117 Y1.158 F1500.000
G1 X-36.120 Y0.195 F1500.000
G1 X-36.105 Y-0.282 F1500.000
G1 X-36.105 Y-0.759 F1500.000
G1 X-36.053 Y-2.192 F1500.000
G1 X-35.962 Y-3.624 F1500.000
G1 X-35.838 Y-5.056 F1500.000
G1 X-35.669 Y-6.489 F1500.000
G1 X-35.538 Y-7.436 F1500.000
G1 X-35.335 Y-8.376 F1500.000
G1 X-35.222 Y-8.842 F1500.000
G1 X-34.955 Y-9.763 F1500.000
G1 X-34.835 Y-10.226 F1500.000
G1 X-34.406 Y-11.602 F1500.000
G1 X-33.932 Y-12.962 F1500.000
G1 X-33.425 Y-14.308 F1500.000
G1 X-32.872 Y-15.639 F1500.000
G1 X-32.680 Y-16.079 F1500.000
G1 X-32.233 Y-16.932 F1500.000
G1 X-32.000 Y-17.353 F1500.000
G1 X-31.748 Y-17.763 F1500.000
G1 X-31.515 Y-18.184 F1500.000
G1 X-30.748 Y-19.406 F1500.000
G1 X-30.504 Y-19.820 F1500.000
G1 X-29.496 Y-21.455 F1500.000
G1 X-28.680 Y-22.647 F1500.000
G1 X-28.109 Y-23.421 F1500.000
G1 X-27.218 Y-24.556 F1500.000
G1 X-26.598 Y-25.289 F1500.000
G1 X-25.925 Y-25.977 F1500.000
G1 X-25.579 Y-26.312 F1500.000
G1 X-24.853 Y-26.947 F1500.000
G1 X-24.496 Y-27.271 F1500.000
G1 X-23.380 Y-28.184 F1500.000
G1 X-23.015 Y-28.500 F1500.000
G1 X-21.162 Y-30.041 F1500.000
G1 X-20.004 Y-30.906 F1500.000
G1 X-19.207 Y-31.447 F1500.000
G1 X-18.395 Y-31.966 F1500.000
G1 X-17.568 Y-32.462 F1500.000
G1 X-16.722 Y-32.929 F1500.000
G1 X-15.861 Y-33.368 F1500.000
G1 X-14.992 Y-33.782 F1500.000
G1 X-14.109 Y-34.165 F1500.000
G1 X-13.673 Y-34.372 F1500.000
G1 X-11.902 Y-35.147 F1500.000
G1 X-11.451 Y-35.312 F1500.000
G1 X-11.004 Y-35.489 F1500.000
G1 X-10.549 Y-35.654 F1500.000
G1 X-9.632 Y-35.955 F1500.000
G1 X-8.707 Y-36.226 F1500.000
G1 X-7.759 Y-36.429 F1500.000
G1 X-7.286 Y-36.511 F1500.000
G1 X-6.816 Y-36.617 F1500.000
G1 X-5.391 Y-36.868 F1500.000
G1 X-3.481 Y-37.158 F1500.000
G1 X-2.045 Y-37.338 F1500.000
G1 X-1.083 Y-37.391 F1500.000
G1 X-0.602 Y-37.406 F1500.000
G1 X0.357 Y-37.402 F1500.000
G1 X0.835 Y-37.421 F1500.000
G1 X2.744 Y-37.417 F1500.000
G1 X3.222 Y-37.383 F1500.000
G1 X3.699 Y-37.361 F1500.000
G1 X4.177 Y-37.323 F1500.000
G1 X5.132 Y-37.211 F1500.000
G1 X5.605 Y-37.143 F1500.000
G1 X6.079 Y-37.064 F1500.000
G1 X6.556 Y-37.008 F1500.000
G1 X8.925 Y-36.628 F1500.000
G1 X10.327 Y-36.305 F1500.000
G1 X11.252 Y-36.045 F1500.000
G1 X11.711 Y-35.902 F1500.000
G1 X12.617 Y-35.586 F1500.000
G1 X13.511 Y-35.237 F1500.000
G1 X13.955 Y-35.049 F1500.000
G1 X14.410 Y-34.891 F1500.000
G1 X15.301 Y-34.534 F1500.000
G1 X16.620 Y-33.955 F1500.000
G1 X17.921 Y-33.335 F1500.000
G1 X19.199 Y-32.669 F1500.000
G1 X20.019 Y-32.165 F1500.000
G1 X20.831 Y-31.647 F1500.000
G1 X22.026 Y-30.838 F1500.000
G1 X23.195 Y-29.992 F1500.000
G1 X24.342 Y-29.113 F1500.000
G1 X25.459 Y-28.199 F1500.000
G1 X26.549 Y-27.252 F1500.000
G1 X27.259 Y-26.602 F1500.000
G1 X27.955 Y-25.936 F1500.000
G1 X28.605 Y-25.226 F1500.000
G1 X28.921 Y-24.861 F1500.000
G1 X29.823 Y-23.733 F1500.000
G1 X30.684 Y-22.571 F1500.000
G1 X31.508 Y-21.383 F1500.000
G1 X32.286 Y-20.165 F1500.000
G1 X32.538 Y-19.752 F1500.000
G1 X32.812 Y-19.353 F1500.000
G1 X33.335 Y-18.545 F1500.000
G1 X34.083 Y-17.308 F1500.000
G1 X34.323 Y-16.891 F1500.000
G1 X34.756 Y-16.030 F1500.000
G1 X34.959 Y-15.594 F1500.000
G1 X35.331 Y-14.703 F1500.000
G1 X35.500 Y-14.252 F1500.000
G1 X35.688 Y-13.808 F1500.000
G1 X36.192 Y-12.455 F1500.000
G1 X36.812 Y-10.628 F1500.000
G1 X37.241 Y-9.244 F1500.000
G1 X37.376 Y-8.782 F1500.000
G1 X37.583 Y-7.838 F1500.000
G1 X37.677 Y-7.365 F1500.000
G1 X37.752 Y-6.887 F1500.000
G1 X37.850 Y-6.414 F1500.000
G1 X38.071 Y-4.981 F1500.000
G1 X38.256 Y-3.549 F1500.000
G1 X38.402 Y-2.105 F1500.000
G1 X38.508 Y-0.662 F1500.000
G1 X38.556 Y0.297 F1500.000
G1 X38.545 Y1.252 F1500.000
G1 X38.526 Y1.729 F1500.000
G1 X38.519 Y2.207 F1500.000
G1 X38.444 Y3.639 F1500.000
G1 X38.331 Y5.071 F1500.000
G1 X38.173 Y6.504 F1500.000
G1 X38.049 Y7.455 F1500.000
G1 X37.857 Y8.395 F1500.000
G1 X37.752 Y8.861 F1500.000
G1 X37.500 Y9.786 F1500.000
G1 X37.357 Y10.244 F1500.000
G1 X37.203 Y10.699 F1500.000
G1 X37.064 Y11.158 F1500.000
G1 X36.586 Y12.519 F1500.000
G1 X36.068 Y13.865 F1500.000
G1 X35.703 Y14.752 F1500.000
G1 X35.316 Y15.632 F1500.000
G1 X35.139 Y16.079 F1500.000
G1 X34.767 Y16.966 F1500.000
G1 X34.169 Y18.278 F1500.000
G1 X33.959 Y18.711 F1500.000
G1 X33.496 Y19.553 F1500.000
G1 X33.252 Y19.966 F1500.000
G1 X32.737 Y20.774 F1500.000
G1 X32.466 Y21.173 F1500.000
G1 X32.184 Y21.564 F1500.000
G1 X31.917 Y21.962 F1500.000
G1 X31.060 Y23.124 F1500.000
G1 X30.173 Y24.259 F1500.000
G1 X29.256 Y25.372 F1500.000
G1 X28.308 Y26.459 F1500.000
G1 X27.658 Y27.169 F1500.000
G1 X27.327 Y27.519 F1500.000
G1 X26.628 Y28.180 F1500.000
G1 X26.271 Y28.504 F1500.000
G1 X25.530 Y29.117 F1500.000
G1 X25.177 Y29.444 F1500.000
G1 X24.440 Y30.064 F1500.000
G1 X24.079 Y30.383 F1500.000
G1 X23.346 Y31.008 F1500.000
G1 X22.195 Y31.883 F1500.000
G1 X21.406 Y32.432 F1500.000
G1 X20.598 Y32.959 F1500.000
G1 X19.774 Y33.455 F1500.000
G1 X18.936 Y33.929 F1500.000
G1 X18.083 Y34.372 F1500.000
G1 X17.650 Y34.583 F1500.000
G1 X17.226 Y34.808 F1500.000
G1 X15.064 Y35.872 F1500.000
G1 X13.726 Y36.417 F1500.000
G1 X12.816 Y36.737 F1500.000
G1 X12.357 Y36.883 F1500.000
G1 X11.906 Y37.049 F1500.000
G1 X10.075 Y37.650 F1500.000
G1 X8.677 Y38.026 F1500.000
G1 X7.737 Y38.237 F1500.000
G1 X7.263 Y38.331 F1500.000
G1 X6.312 Y38.492 F1500.000
G1 X5.357 Y38.620 F1500.000
G1 X4.883 Y38.711 F1500.000
G1 X3.929 Y38.850 F1500.000
G1 X2.485 Y38.989 F1500.000
G1 X1.523 Y39.045 F1500.000
G1 X0.560 Y39.068 F1500.000
G1 X-0.398 Y39.060 F1500.000
G1 X-0.876 Y39.075 F1500.000
G1 X-1.831 Y39.071 F1500.000
G1 X-3.263 Y39.015 F1500.000
G1 X-4.218 Y38.944 F1500.000
G1 X-5.650 Y38.789 F1500.000
G1 X-7.071 Y38.579 F1500.000
G1 X-8.485 Y38.312 F1500.000
G1 X-9.887 Y37.989 F1500.000
G1 X-11.278 Y37.609 F1500.000
G1 X-12.195 Y37.323 F1500.000
G1 X-13.090 Y36.977 F1500.000
G1 X-13.534 Y36.789 F1500.000
G1 X-13.970 Y36.586 F1500.000
G1 X-14.414 Y36.402 F1500.000
G1 X-15.711 Y35.774 F1500.000
G1 X-16.150 Y35.583 F1500.000
G1 X-17.019 Y35.173 F1500.000
G1 X-17.895 Y34.778 F1500.000
G1 X-18.316 Y34.549 F1500.000
G1 X-18.744 Y34.335 F1500.000
G1 X-19.169 Y34.109 F1500.000
G1 X-20.004 Y33.628 F1500.000
G1 X-20.820 Y33.124 F1500.000
G1 X-21.620 Y32.598 F1500.000
G1 X-22.406 Y32.041 F1500.000
G1 X-23.173 Y31.462 F1500.000
G1 X-23.921 Y30.861 F1500.000
G1 X-24.650 Y30.233 F1500.000
G1 X-25.008 Y29.910 F1500.000
G1 X-25.376 Y29.602 F1500.000
G1 X-26.820 Y28.327 F1500.000
G1 X-27.158 Y27.985 F1500.000
G1 X-27.504 Y27.650 F1500.000
G1 X-27.838 Y27.305 F1500.000
G1 X-28.485 Y26.590 F1500.000
G1 X-29.102 Y25.853 F1500.000
G1 X-29.402 Y25.477 F1500.000
G1 X-29.714 Y25.113 F1500.000
G1 X-31.504 Y22.846 F1500.000
G1 X-32.376 Y21.695 F1500.000
G1 X-33.177 Y20.492 F1500.000
G1 X-33.673 Y19.665 F1500.000
G1 X-34.139 Y18.823 F1500.000
G1 X-34.575 Y17.962 F1500.000
G1 X-34.981 Y17.086 F1500.000
G1 X-35.357 Y16.195 F1500.000
G1 X-35.534 Y15.744 F1500.000
G1 X-35.737 Y15.308 F1500.000
G1 X-36.109 Y14.417 F1500.000
G1 X-36.492 Y13.534 F1500.000
G1 X-36.650 Y13.079 F1500.000
G1 X-36.823 Y12.628 F1500.000
G1 X-36.981 Y12.173 F1500.000
G1 X-37.267 Y11.256 F1500.000
G1 X-37.402 Y10.793 F1500.000
G1 X-37.647 Y9.861 F1500.000
G1 X-37.857 Y8.917 F1500.000
G1 X-38.038 Y7.970 F1500.000
G1 X-38.113 Y7.492 F1500.000
G1 X-38.211 Y7.019 F1500.000
G1 X-38.632 Y4.643 F1500.000
G1 X-38.805 Y3.203 F1500.000
G1 X-38.883 Y2.241 F1500.000
G1 X-38.914 Y1.759 F1500.000
G1 X-38.947 Y0.797 F1500.000
G1 X-38.947 Y-0.162 F1500.000
G1 X-38.917 Y-1.117 F1500.000
G1 X-38.891 Y-1.594 F1500.000
G1 X-38.883 Y-2.071 F1500.000
G1 X-38.707 Y-5.414 F1500.000
G1 X-38.643 Y-5.887 F1500.000
G1 X-38.590 Y-6.365 F1500.000
G1 X-38.523 Y-6.838 F1500.000
G1 X-38.353 Y-7.786 F1500.000
G1 X-38.150 Y-8.722 F1500.000
G1 X-38.038 Y-9.188 F1500.000
G1 X-37.914 Y-9.650 F1500.000
G1 X-37.635 Y-10.571 F1500.000
G1 X-37.515 Y-11.034 F1500.000
G1 X-36.526 Y-14.248 F1500.000
G1 X-36.180 Y-15.147 F1500.000
G1 X-36.000 Y-15.590 F1500.000
G1 X-35.605 Y-16.466 F1500.000
G1 X-35.177 Y-17.327 F1500.000
G1 X-34.951 Y-17.752 F1500.000
G1 X-34.714 Y-18.169 F1500.000
G1 X-34.492 Y-18.594 F1500.000
G1 X-33.782 Y-19.846 F1500.000
G1 X-33.045 Y-21.086 F1500.000
G1 X-32.026 Y-22.718 F1500.000
G1 X-30.962 Y-24.320 F1500.000
G1 X-30.417 Y-25.109 F1500.000
G1 X-29.827 Y-25.865 F1500.000
G1 X-29.523 Y-26.237 F1500.000
G1 X-28.887 Y-26.962 F1500.000
G1 X-28.560 Y-27.316 F1500.000
G1 X-28.226 Y-27.662 F1500.000
G1 X-27.883 Y-28.000 F1500.000
G1 X-27.180 Y-28.658 F1500.000
G1 X-26.820 Y-28.977 F1500.000
G1 X-26.451 Y-29.289 F1500.000
G1 X-26.094 Y-29.613 F1500.000
G1 X-24.992 Y-30.545 F1500.000
G1 X-23.500 Y-31.759 F1500.000
G1 X-21.590 Y-33.226 F1500.000
G1 X-20.816 Y-33.797 F1500.000
G1 X-20.008 Y-34.316 F1500.000
G1 X-19.598 Y-34.568 F1500.000
G1 X-18.756 Y-35.038 F1500.000
G1 X-18.327 Y-35.259 F1500.000
G1 X-17.895 Y-35.470 F1500.000
G1 X-17.474 Y-35.703 F1500.000
G1 X-15.305 Y-36.752 F1500.000
G1 X-13.549 Y-37.549 F1500.000
G1 X-13.105 Y-37.741 F1500.000
G1 X-12.203 Y-38.079 F1500.000
G1 X-11.748 Y-38.241 F1500.000
G1 X-10.827 Y-38.530 F1500.000
G1 X-9.898 Y-38.786 F1500.000
G1 X-9.429 Y-38.902 F1500.000
G1 X-8.485 Y-39.105 F1500.000
G1 X-8.019 Y-39.226 F1500.000
G1 X-5.662 Y-39.741 F1500.000
G1 X-4.233 Y-39.977 F1500.000
G1 X-2.797 Y-40.150 F1500.000
G1 X-1.835 Y-40.229 F1500.000
G1 X-0.872 Y-40.282 F1500.000
G1 X0.086 Y-40.305 F1500.000
G1 X1.041 Y-40.297 F1500.000
G1 X1.996 Y-40.259 F1500.000
G1 X2.951 Y-40.192 F1500.000
G1 X3.429 Y-40.177 F1500.000
G1 X5.338 Y-40.056 F1500.000
G1 X5.816 Y-40.000 F1500.000
G1 X6.293 Y-39.955 F1500.000
G1 X6.771 Y-39.898 F1500.000
G1 X7.718 Y-39.759 F1500.000
G1 X8.662 Y-39.594 F1500.000
G1 X9.602 Y-39.398 F1500.000
G1 X10.534 Y-39.180 F1500.000
G1 X11.925 Y-38.801 F1500.000
G1 X12.842 Y-38.515 F1500.000
G1 X14.199 Y-38.034 F1500.000
G1 X15.534 Y-37.496 F1500.000
G1 X15.974 Y-37.305 F1500.000
G1 X16.421 Y-37.128 F1500.000
G1 X18.184 Y-36.372 F1500.000
G1 X19.053 Y-35.959 F1500.000
G1 X19.481 Y-35.744 F1500.000
G1 X20.331 Y-35.293 F1500.000
G1 X21.169 Y-34.820 F1500.000
G1 X21.992 Y-34.323 F1500.000
G1 X22.801 Y-33.801 F1500.000
G1 X23.594 Y-33.256 F1500.000
G1 X24.372 Y-32.688 F1500.000
G1 X25.128 Y-32.098 F1500.000
G1 X25.868 Y-31.485 F1500.000
G1 X26.248 Y-31.192 F1500.000
G1 X28.113 Y-29.677 F1500.000
G1 X28.462 Y-29.350 F1500.000
G1 X28.820 Y-29.030 F1500.000
G1 X29.169 Y-28.699 F1500.000
G1 X29.846 Y-28.015 F1500.000
G1 X30.177 Y-27.665 F1500.000
G1 X30.816 Y-26.947 F1500.000
G1 X31.425 Y-26.203 F1500.000
G1 X32.011 Y-25.436 F1500.000
G1 X32.293 Y-25.045 F1500.000
G1 X32.590 Y-24.665 F1500.000
G1 X34.553 Y-21.929 F1500.000
G1 X35.376 Y-20.741 F1500.000
G1 X36.124 Y-19.504 F1500.000
G1 X36.586 Y-18.658 F1500.000
G1 X36.808 Y-18.229 F1500.000
G1 X37.226 Y-17.361 F1500.000
G1 X37.425 Y-16.921 F1500.000
G1 X37.793 Y-16.030 F1500.000
G1 X37.966 Y-15.579 F1500.000
G1 X38.158 Y-15.135 F1500.000
G1 X39.218 Y-12.440 F1500.000
G1 X39.673 Y-11.068 F1500.000
G1 X39.940 Y-10.143 F1500.000
G1 X40.180 Y-9.207 F1500.000
G1 X40.391 Y-8.263 F1500.000
G1 X40.571 Y-7.316 F1500.000
G1 X40.722 Y-6.361 F1500.000
G1 X40.842 Y-5.402 F1500.000
G1 X40.917 Y-4.925 F1500.000
G1 X41.222 Y-2.538 F1500.000
G1 X41.331 Y-1.094 F1500.000
G1 X41.368 Y-0.132 F1500.000
G1 X41.372 Y1.301 F1500.000
G1 X41.342 Y2.256 F1500.000
G1 X41.282 Y3.211 F1500.000
G1 X41.241 Y3.688 F1500.000
G1 X41.222 Y4.165 F1500.000
G1 X41.150 Y5.120 F1500.000
G1 X41.090 Y6.075 F1500.000
G1 X41.026 Y6.549 F1500.000
G1 X40.977 Y7.026 F1500.000
G1 X40.914 Y7.500 F1500.000
G1 X40.756 Y8.447 F1500.000
G1 X40.530 Y9.380 F1500.000
G1 X40.402 Y9.842 F1500.000
G1 X40.256 Y10.301 F1500.000
G1 X40.128 Y10.763 F1500.000
G1 X39.669 Y12.128 F1500.000
G1 X39.530 Y12.586 F1500.000
G1 X39.229 Y13.496 F1500.000
G1 X39.086 Y13.955 F1500.000
G1 X38.914 Y14.402 F1500.000
G1 X38.583 Y15.305 F1500.000
G1 X38.034 Y16.635 F1500.000
G1 X37.436 Y17.947 F1500.000
G1 X37.011 Y18.808 F1500.000
G1 X36.335 Y20.083 F1500.000
G1 X35.613 Y21.331 F1500.000
G1 X35.105 Y22.147 F1500.000
G1 X34.305 Y23.346 F1500.000
G1 X33.748 Y24.132 F1500.000
G1 X33.173 Y24.902 F1500.000
G1 X32.271 Y26.030 F1500.000
G1 X31.981 Y26.414 F1500.000
G1 X31.090 Y27.545 F1500.000
G1 X30.771 Y27.906 F1500.000
G1 X30.147 Y28.639 F1500.000
G1 X29.162 Y29.695 F1500.000
G1 X28.823 Y30.038 F1500.000
G1 X28.109 Y30.680 F1500.000
G1 X27.741 Y30.992 F1500.000
G1 X27.383 Y31.316 F1500.000
G1 X26.278 Y32.244 F1500.000
G1 X24.771 Y33.447 F1500.000
G1 X23.229 Y34.602 F1500.000
G1 X22.838 Y34.883 F1500.000
G1 X21.617 Y35.650 F1500.000
G1 X20.774 Y36.120 F1500.000
G1 X20.346 Y36.342 F1500.000
G1 X19.932 Y36.590 F1500.000
G1 X19.086 Y37.053 F1500.000
G1 X18.248 Y37.526 F1500.000
G1 X17.812 Y37.733 F1500.000
G1 X17.383 Y37.951 F1500.000
G1 X16.947 Y38.158 F1500.000
G1 X16.060 Y38.541 F1500.000
G1 X15.613 Y38.726 F1500.000
G1 X14.711 Y39.068 F1500.000
G1 X13.797 Y39.383 F1500.000
G1 X13.338 Y39.530 F1500.000
G1 X12.887 Y39.703 F1500.000
G1 X11.977 Y40.019 F1500.000
G1 X10.598 Y40.455 F1500.000
G1 X9.673 Y40.722 F1500.000
G1 X8.733 Y40.929 F1500.000
G1 X8.259 Y41.023 F1500.000
G1 X7.782 Y41.098 F1500.000
G1 X7.308 Y41.199 F1500.000
G1 X5.876 Y41.436 F1500.000
G1 X3.966 Y41.711 F1500.000
G1 X3.489 Y41.771 F1500.000
G1 X2.526 Y41.842 F1500.000
G1 X2.045 Y41.868 F1500.000
G1 X1.083 Y41.887 F1500.000
G1 X0.602 Y41.914 F1500.000
G1 X-0.835 Y41.936 F1500.000
G1 X-2.744 Y41.932 F1500.000
G1 X-4.177 Y41.835 F1500.000
G1 X-5.132 Y41.726 F1500.000
G1 X-5.605 Y41.658 F1500.000
G1 X-6.553 Y41.496 F1500.000
G1 X-7.030 Y41.436 F1500.000
G1 X-8.925 Y41.128 F1500.000
G1 X-9.395 Y41.023 F1500.000
G1 X-9.865 Y40.929 F1500.000
G1 X-10.331 Y40.823 F1500.000
G1 X-11.263 Y40.583 F1500.000
G1 X-11.726 Y40.455 F1500.000
G1 X-12.643 Y40.173 F1500.000
G1 X-13.553 Y39.865 F1500.000
G1 X-14.451 Y39.526 F1500.000
G1 X-15.338 Y39.158 F1500.000
G1 X-16.214 Y38.767 F1500.000
G1 X-17.075 Y38.346 F1500.000
G1 X-17.504 Y38.124 F1500.000
G1 X-17.940 Y37.921 F1500.000
G1 X-20.515 Y36.620 F1500.000
G1 X-21.759 Y35.895 F1500.000
G1 X-22.568 Y35.376 F1500.000
G1 X-23.357 Y34.827 F1500.000
G1 X-24.128 Y34.256 F1500.000
G1 X-24.880 Y33.654 F1500.000
G1 X-25.248 Y33.346 F1500.000
G1 X-25.632 Y33.056 F1500.000
G1 X-27.504 Y31.545 F1500.000
G1 X-28.571 Y30.575 F1500.000
G1 X-29.256 Y29.898 F1500.000
G1 X-29.590 Y29.553 F1500.000
G1 X-30.241 Y28.842 F1500.000
G1 X-30.560 Y28.481 F1500.000
G1 X-31.177 Y27.741 F1500.000
G1 X-31.477 Y27.365 F1500.000
G1 X-31.793 Y27.004 F1500.000
G1 X-33.940 Y24.406 F1500.000
G1 X-34.218 Y24.015 F1500.000
G1 X-34.508 Y23.628 F1500.000
G1 X-34.786 Y23.233 F1500.000
G1 X-35.312 Y22.429 F1500.000
G1 X-35.568 Y22.019 F1500.000
G1 X-36.053 Y21.188 F1500.000
G1 X-36.504 Y20.335 F1500.000
G1 X-36.925 Y19.466 F1500.000
G1 X-37.124 Y19.026 F1500.000
G1 X-37.342 Y18.594 F1500.000
G1 X-38.729 Y15.519 F1500.000
G1 X-39.113 Y14.632 F1500.000
G1 X-39.602 Y13.271 F1500.000
G1 X-39.891 Y12.350 F1500.000
G1 X-40.147 Y11.421 F1500.000
G1 X-40.263 Y10.951 F1500.000
G1 X-40.466 Y10.008 F1500.000
G1 X-40.556 Y9.534 F1500.000
G1 X-40.669 Y9.064 F1500.000
G1 X-40.861 Y8.117 F1500.000
G1 X-40.966 Y7.647 F1500.000
G1 X-41.256 Y6.226 F1500.000
G1 X-41.477 Y4.793 F1500.000
G1 X-41.639 Y3.350 F1500.000
G1 X-41.714 Y2.387 F1500.000
G1 X-41.774 Y0.944 F1500.000
G1 X-41.782 Y-0.015 F1500.000
G1 X-41.759 Y-0.970 F1500.000
G1 X-41.737 Y-1.447 F1500.000
G1 X-41.737 Y-1.925 F1500.000
G1 X-41.665 Y-4.312 F1500.000
G1 X-41.549 Y-5.744 F1500.000
G1 X-41.432 Y-6.699 F1500.000
G1 X-41.289 Y-7.647 F1500.000
G1 X-41.117 Y-8.590 F1500.000
G1 X-40.914 Y-9.530 F1500.000
G1 X-40.680 Y-10.462 F1500.000
G1 X-40.417 Y-11.387 F1500.000
G1 X-40.132 Y-12.301 F1500.000
G1 X-39.977 Y-12.756 F1500.000
G1 X-39.846 Y-13.218 F1500.000
G1 X-39.549 Y-14.132 F1500.000
G1 X-39.263 Y-15.049 F1500.000
G1 X-39.086 Y-15.496 F1500.000
G1 X-38.925 Y-15.947 F1500.000
G1 X-38.752 Y-16.395 F1500.000
G1 X-38.376 Y-17.274 F1500.000
G1 X-37.970 Y-18.143 F1500.000
G1 X-37.534 Y-19.000 F1500.000
G1 X-37.068 Y-19.838 F1500.000
G1 X-36.579 Y-20.662 F1500.000
G1 X-36.350 Y-21.083 F1500.000
G1 X-34.395 Y-24.395 F1500.000
G1 X-33.594 Y-25.594 F1500.000
G1 X-32.748 Y-26.763 F1500.000
G1 X-32.158 Y-27.519 F1500.000
G1 X-31.545 Y-28.259 F1500.000
G1 X-30.910 Y-28.985 F1500.000
G1 X-30.256 Y-29.688 F1500.000
G1 X-29.583 Y-30.376 F1500.000
G1 X-28.887 Y-31.041 F1500.000
G1 X-28.534 Y-31.368 F1500.000
G1 X-27.808 Y-32.004 F1500.000
G1 X-26.692 Y-32.917 F1500.000
G1 X-25.925 Y-33.500 F1500.000
G1 X-25.553 Y-33.805 F1500.000
G1 X-23.263 Y-35.571 F1500.000
G1 X-22.071 Y-36.391 F1500.000
G1 X-21.259 Y-36.902 F1500.000
G1 X-20.429 Y-37.391 F1500.000
G1 X-19.583 Y-37.850 F1500.000
G1 X-18.722 Y-38.286 F1500.000
G1 X-17.846 Y-38.692 F1500.000
G1 X-17.417 Y-38.910 F1500.000
G1 X-15.241 Y-39.932 F1500.000
G1 X-13.902 Y-40.477 F1500.000
G1 X-12.992 Y-40.808 F1500.000
G1 X-12.075 Y-41.109 F1500.000
G1 X-11.150 Y-41.387 F1500.000
G1 X-10.218 Y-41.635 F1500.000
G1 X-9.278 Y-41.853 F1500.000
G1 X-8.805 Y-41.951 F1500.000
G1 X-8.338 Y-42.071 F1500.000
G1 X-7.398 Y-42.282 F1500.000
G1 X-6.459 Y-42.508 F1500.000
G1 X-5.981 Y-42.586 F1500.000
G1 X-5.508 Y-42.677 F1500.000
G1 X-5.030 Y-42.756 F1500.000
G1 X-4.075 Y-42.883 F1500.000
G1 X-3.594 Y-42.936 F1500.000
G1 X-2.632 Y-43.015 F1500.000
G1 X-1.669 Y-43.060 F1500.000
G1 X-0.707 Y-43.075 F1500.000
G1 X-0.226 Y-43.071 F1500.000
G1 X0.252 Y-43.090 F1500.000
G1 X2.639 Y-43.105 F1500.000
G1 X4.071 Y-43.045 F1500.000
G1 X5.026 Y-42.974 F1500.000
G1 X6.459 Y-42.820 F1500.000
G1 X7.406 Y-42.684 F1500.000
G1 X8.353 Y-42.519 F1500.000
G1 X9.293 Y-42.331 F1500.000
G1 X10.695 Y-41.996 F1500.000
G1 X11.620 Y-41.741 F1500.000
G1 X12.086 Y-41.628 F1500.000
G1 X13.011 Y-41.376 F1500.000
G1 X14.383 Y-40.944 F1500.000
G1 X15.286 Y-40.624 F1500.000
G1 X16.184 Y-40.278 F1500.000
G1 X17.071 Y-39.910 F1500.000
G1 X17.511 Y-39.714 F1500.000
G1 X17.959 Y-39.541 F1500.000
G1 X19.729 Y-38.797 F1500.000
G1 X20.158 Y-38.583 F1500.000
G1 X20.594 Y-38.380 F1500.000
G1 X21.023 Y-38.165 F1500.000
G1 X21.865 Y-37.707 F1500.000
G1 X22.692 Y-37.218 F1500.000
G1 X23.504 Y-36.699 F1500.000
G1 X24.297 Y-36.154 F1500.000
G1 X24.684 Y-35.872 F1500.000
G1 X25.083 Y-35.605 F1500.000
G1 X28.203 Y-33.346 F1500.000
G1 X29.312 Y-32.421 F1500.000
G1 X30.026 Y-31.774 F1500.000
G1 X30.376 Y-31.444 F1500.000
G1 X31.056 Y-30.763 F1500.000
G1 X31.387 Y-30.414 F1500.000
G1 X32.030 Y-29.695 F1500.000
G1 X32.361 Y-29.346 F1500.000
G1 X33.955 Y-27.545 F1500.000
G1 X34.846 Y-26.406 F1500.000
G1 X35.410 Y-25.624 F1500.000
G1 X35.684 Y-25.226 F1500.000
G1 X35.974 Y-24.842 F1500.000
G1 X37.639 Y-22.477 F1500.000
G1 X38.150 Y-21.662 F1500.000
G1 X38.398 Y-21.248 F1500.000
G1 X38.872 Y-20.406 F1500.000
G1 X39.316 Y-19.553 F1500.000
G1 X39.530 Y-19.120 F1500.000
G1 X39.929 Y-18.244 F1500.000
G1 X40.305 Y-17.353 F1500.000
G1 X40.481 Y-16.902 F1500.000
G1 X40.677 Y-16.462 F1500.000
G1 X41.925 Y-13.331 F1500.000
G1 X42.226 Y-12.414 F1500.000
G1 X42.368 Y-11.951 F1500.000
G1 X42.624 Y-11.019 F1500.000
G1 X42.741 Y-10.549 F1500.000
G1 X42.944 Y-9.605 F1500.000
G1 X43.034 Y-9.132 F1500.000
G1 X43.139 Y-8.662 F1500.000
G1 X43.586 Y-6.293 F1500.000
G1 X43.902 Y-4.387 F1500.000
G1 X44.053 Y-2.944 F1500.000
G1 X44.109 Y-1.981 F1500.000
G1 X44.132 Y-1.019 F1500.000
G1 X44.132 Y-0.538 F1500.000
G1 X44.150 Y-0.056 F1500.000
G1 X44.169 Y3.286 F1500.000
G1 X44.094 Y4.718 F1500.000
G1 X44.008 Y5.673 F1500.000
G1 X43.895 Y6.628 F1500.000
G1 X43.752 Y7.575 F1500.000
G1 X43.579 Y8.519 F1500.000
G1 X43.376 Y9.459 F1500.000
G1 X43.150 Y10.391 F1500.000
G1 X42.895 Y11.316 F1500.000
G1 X42.609 Y12.233 F1500.000
G1 X42.455 Y12.688 F1500.000
G1 X42.323 Y13.150 F1500.000
G1 X41.748 Y14.981 F1500.000
G1 X41.259 Y16.338 F1500.000
G1 X40.906 Y17.233 F1500.000
G1 X40.335 Y18.556 F1500.000
G1 X39.921 Y19.425 F1500.000
G1 X39.485 Y20.282 F1500.000
G1 X39.026 Y21.128 F1500.000
G1 X38.549 Y21.959 F1500.000
G1 X38.049 Y22.782 F1500.000
G1 X37.526 Y23.590 F1500.000
G1 X36.703 Y24.774 F1500.000
G1 X36.417 Y25.162 F1500.000
G1 X36.147 Y25.560 F1500.000
G1 X34.756 Y27.519 F1500.000
G1 X33.868 Y28.658 F1500.000
G1 X33.252 Y29.395 F1500.000
G1 X32.617 Y30.120 F1500.000
G1 X31.966 Y30.831 F1500.000
G1 X31.293 Y31.519 F1500.000
G1 X30.605 Y32.192 F1500.000
G1 X30.256 Y32.523 F1500.000
G1 X29.538 Y33.165 F1500.000
G1 X28.805 Y33.793 F1500.000
G1 X27.677 Y34.695 F1500.000
G1 X27.312 Y35.011 F1500.000
G1 X26.564 Y35.617 F1500.000
G1 X25.823 Y36.233 F1500.000
G1 X25.429 Y36.511 F1500.000
G1 X25.045 Y36.801 F1500.000
G1 X24.654 Y37.079 F1500.000
G1 X23.850 Y37.613 F1500.000
G1 X23.026 Y38.117 F1500.000
G1 X22.188 Y38.590 F1500.000
G1 X21.763 Y38.816 F1500.000
G1 X21.346 Y39.060 F1500.000
G1 X19.226 Y40.207 F1500.000
G1 X17.921 Y40.823 F1500.000
G1 X17.034 Y41.199 F1500.000
G1 X16.586 Y41.380 F1500.000
G1 X15.680 Y41.714 F1500.000
G1 X14.767 Y42.023 F1500.000
G1 X14.320 Y42.203 F1500.000
G1 X13.414 Y42.534 F1500.000
G1 X12.041 Y42.996 F1500.000
G1 X11.124 Y43.282 F1500.000
G1 X10.188 Y43.511 F1500.000
G1 X9.718 Y43.617 F1500.000
G1 X8.771 Y43.793 F1500.000
G1 X8.301 Y43.902 F1500.000
G1 X5.459 Y44.432 F1500.000
G1 X4.977 Y44.489 F1500.000
G1 X4.500 Y44.556 F1500.000
G1 X4.019 Y44.613 F1500.000
G1 X3.056 Y44.692 F1500.000
G1 X2.575 Y44.722 F1500.000
G1 X1.613 Y44.752 F1500.000
G1 X1.132 Y44.756 F1500.000
G1 X0.650 Y44.782 F1500.000
G1 X-1.741 Y44.827 F1500.000
G1 X-3.173 Y44.782 F1500.000
G1 X-4.128 Y44.714 F1500.000
G1 X-5.560 Y44.560 F1500.000
G1 X-6.508 Y44.425 F1500.000
G1 X-7.455 Y44.259 F1500.000
G1 X-7.929 Y44.192 F1500.000
G1 X-9.823 Y43.868 F1500.000
G1 X-10.289 Y43.759 F1500.000
G1 X-10.759 Y43.662 F1500.000
G1 X-11.226 Y43.553 F1500.000
G1 X-12.613 Y43.173 F1500.000
G1 X-13.530 Y42.883 F1500.000
G1 X-14.436 Y42.568 F1500.000
G1 X-15.335 Y42.222 F1500.000
G1 X-16.218 Y41.850 F1500.000
G1 X-17.094 Y41.451 F1500.000
G1 X-17.526 Y41.241 F1500.000
G1 X-17.966 Y41.049 F1500.000
G1 X-20.579 Y39.831 F1500.000
G1 X-21.850 Y39.150 F1500.000
G1 X-22.684 Y38.669 F1500.000
G1 X-23.500 Y38.165 F1500.000
G1 X-24.301 Y37.639 F1500.000
G1 X-25.086 Y37.086 F1500.000
G1 X-25.857 Y36.511 F1500.000
G1 X-26.609 Y35.910 F1500.000
G1 X-26.996 Y35.624 F1500.000
G1 X-28.880 Y34.132 F1500.000
G1 X-29.962 Y33.177 F1500.000
G1 X-30.662 Y32.515 F1500.000
G1 X-31.004 Y32.177 F1500.000
G1 X-31.669 Y31.481 F1500.000
G1 X-32.316 Y30.771 F1500.000
G1 X-32.940 Y30.038 F1500.000
G1 X-33.244 Y29.665 F1500.000
G1 X-33.568 Y29.308 F1500.000
G1 X-34.188 Y28.575 F1500.000
G1 X-35.139 Y27.489 F1500.000
G1 X-36.038 Y26.353 F1500.000
G1 X-36.609 Y25.579 F1500.000
G1 X-37.432 Y24.395 F1500.000
G1 X-37.955 Y23.586 F1500.000
G1 X-38.455 Y22.763 F1500.000
G1 X-39.165 Y21.504 F1500.000
G1 X-39.613 Y20.650 F1500.000
G1 X-40.038 Y19.782 F1500.000
G1 X-40.440 Y18.906 F1500.000
G1 X-40.816 Y18.019 F1500.000
G1 X-41.338 Y16.669 F1500.000
G1 X-41.658 Y15.759 F1500.000
G1 X-41.835 Y15.312 F1500.000
G1 X-42.331 Y13.951 F1500.000
G1 X-42.763 Y12.568 F1500.000
G1 X-43.139 Y11.169 F1500.000
G1 X-43.353 Y10.229 F1500.000
G1 X-43.628 Y8.808 F1500.000
G1 X-43.729 Y8.338 F1500.000
G1 X-44.184 Y5.970 F1500.000
G1 X-44.383 Y4.538 F1500.000
G1 X-44.481 Y3.575 F1500.000
G1 X-44.575 Y2.132 F1500.000
G1 X-44.602 Y0.688 F1500.000
G1 X-44.586 Y-0.271 F1500.000
G1 X-44.594 Y-0.748 F1500.000
G1 X-44.568 Y-4.090 F1500.000
G1 X-44.530 Y-4.568 F1500.000
G1 X-44.504 Y-5.045 F1500.000
G1 X-44.466 Y-5.523 F1500.000
G1 X-44.361 Y-6.477 F1500.000
G1 X-44.297 Y-6.951 F1500.000
G1 X-44.143 Y-7.898 F1500.000
G1 X-43.955 Y-8.838 F1500.000
G1 X-43.737 Y-9.771 F1500.000
G1 X-43.617 Y-10.233 F1500.000
G1 X-43.485 Y-10.695 F1500.000
G1 X-43.376 Y-11.162 F1500.000
G1 X-42.511 Y-14.402 F1500.000
G1 X-42.357 Y-14.857 F1500.000
G1 X-42.214 Y-15.316 F1500.000
G1 X-42.060 Y-15.771 F1500.000
G1 X-41.726 Y-16.673 F1500.000
G1 X-41.365 Y-17.564 F1500.000
G1 X-40.974 Y-18.440 F1500.000
G1 X-40.553 Y-19.305 F1500.000
G1 X-40.105 Y-20.158 F1500.000
G1 X-39.632 Y-20.996 F1500.000
G1 X-39.410 Y-21.421 F1500.000
G1 X-36.789 Y-26.008 F1500.000
G1 X-35.985 Y-27.203 F1500.000
G1 X-35.414 Y-27.977 F1500.000
G1 X-34.812 Y-28.729 F1500.000
G1 X-34.188 Y-29.459 F1500.000
G1 X-33.887 Y-29.831 F1500.000
G1 X-32.305 Y-31.639 F1500.000
G1 X-31.632 Y-32.327 F1500.000
G1 X-31.289 Y-32.665 F1500.000
G1 X-30.586 Y-33.320 F1500.000
G1 X-29.861 Y-33.951 F1500.000
G1 X-29.113 Y-34.560 F1500.000
G1 X-28.748 Y-34.876 F1500.000
G1 X-25.744 Y-37.289 F1500.000
G1 X-25.365 Y-37.586 F1500.000
G1 X-24.184 Y-38.417 F1500.000
G1 X-23.376 Y-38.940 F1500.000
G1 X-22.553 Y-39.436 F1500.000
G1 X-21.714 Y-39.910 F1500.000
G1 X-20.861 Y-40.353 F1500.000
G1 X-20.429 Y-40.568 F1500.000
G1 X-20.004 Y-40.797 F1500.000
G1 X-16.541 Y-42.496 F1500.000
G1 X-15.203 Y-43.041 F1500.000
G1 X-14.293 Y-43.365 F1500.000
G1 X-13.835 Y-43.515 F1500.000
G1 X-12.910 Y-43.789 F1500.000
G1 X-12.444 Y-43.914 F1500.000
G1 X-11.985 Y-44.060 F1500.000
G1 X-8.259 Y-45.083 F1500.000
G1 X-6.838 Y-45.368 F1500.000
G1 X-5.883 Y-45.511 F1500.000
G1 X-5.406 Y-45.571 F1500.000
G1 X-4.444 Y-45.662 F1500.000
G1 X-3.966 Y-45.726 F1500.000
G1 X-2.041 Y-45.914 F1500.000
G1 X-1.560 Y-45.929 F1500.000
G1 X-1.079 Y-45.955 F1500.000
G1 X-0.598 Y-45.966 F1500.000
G1 X0.361 Y-45.959 F1500.000
G1 X0.838 Y-45.977 F1500.000
G1 X3.226 Y-45.981 F1500.000
G1 X4.658 Y-45.895 F1500.000
G1 X5.613 Y-45.793 F1500.000
G1 X6.560 Y-45.658 F1500.000
G1 X7.034 Y-45.579 F1500.000
G1 X7.511 Y-45.526 F1500.000
G1 X8.459 Y-45.380 F1500.000
G1 X8.932 Y-45.316 F1500.000
G1 X10.346 Y-45.038 F1500.000
G1 X11.744 Y-44.703 F1500.000
G1 X12.669 Y-44.451 F1500.000
G1 X13.586 Y-44.173 F1500.000
G1 X14.496 Y-43.872 F1500.000
G1 X15.398 Y-43.545 F1500.000
G1 X15.857 Y-43.398 F1500.000
G1 X16.763 Y-43.079 F1500.000
G1 X17.673 Y-42.774 F1500.000
G1 X18.120 Y-42.598 F1500.000
G1 X18.571 Y-42.432 F1500.000
G1 X19.906 Y-41.887 F1500.000
G1 X21.218 Y-41.293 F1500.000
G1 X22.508 Y-40.654 F1500.000
G1 X23.353 Y-40.203 F1500.000
G1 X24.165 Y-39.688 F1500.000
G1 X24.564 Y-39.417 F1500.000
G1 X24.970 Y-39.162 F1500.000
G1 X26.162 Y-38.346 F1500.000
G1 X27.335 Y-37.508 F1500.000
G1 X28.489 Y-36.639 F1500.000
G1 X29.620 Y-35.744 F1500.000
G1 X31.094 Y-34.508 F1500.000
G1 X32.526 Y-33.226 F1500.000
G1 X33.229 Y-32.568 F1500.000
G1 X33.921 Y-31.898 F1500.000
G1 X34.571 Y-31.188 F1500.000
G1 X34.891 Y-30.827 F1500.000
G1 X35.500 Y-30.079 F1500.000
G1 X35.812 Y-29.714 F1500.000
G1 X37.000 Y-28.195 F1500.000
G1 X37.865 Y-27.038 F1500.000
G1 X38.974 Y-25.462 F1500.000
G1 X39.774 Y-24.259 F1500.000
G1 X40.797 Y-22.628 F1500.000
G1 X41.530 Y-21.383 F1500.000
G1 X41.767 Y-20.966 F1500.000
G1 X42.184 Y-20.098 F1500.000
G1 X42.586 Y-19.222 F1500.000
G1 X43.150 Y-17.891 F1500.000
G1 X43.500 Y-16.992 F1500.000
G1 X43.692 Y-16.549 F1500.000
G1 X44.049 Y-15.654 F1500.000
G1 X44.417 Y-14.763 F1500.000
G1 X44.571 Y-14.305 F1500.000
G1 X44.737 Y-13.850 F1500.000
G1 X44.891 Y-13.391 F1500.000
G1 X45.169 Y-12.466 F1500.000
G1 X45.425 Y-11.534 F1500.000
G1 X45.650 Y-10.594 F1500.000
G1 X45.846 Y-9.647 F1500.000
G1 X46.011 Y-8.695 F1500.000
G1 X46.113 Y-8.226 F1500.000
G1 X46.560 Y-5.857 F1500.000
G1 X46.756 Y-4.425 F1500.000
G1 X46.850 Y-3.462 F1500.000
G1 X46.917 Y-2.500 F1500.000
G1 X46.955 Y-1.538 F1500.000
G1 X46.962 Y-0.575 F1500.000
G1 X46.981 Y-0.094 F1500.000
G1 X47.023 Y3.726 F1500.000
G1 X46.992 Y4.203 F1500.000
G1 X46.974 Y4.680 F1500.000
G1 X46.940 Y5.158 F1500.000
G1 X46.838 Y6.113 F1500.000
G1 X46.703 Y7.060 F1500.000
G1 X46.624 Y7.534 F1500.000
G1 X46.436 Y8.474 F1500.000
G1 X46.357 Y8.947 F1500.000
G1 X45.865 Y11.297 F1500.000
G1 X45.474 Y12.684 F1500.000
G1 X45.173 Y13.594 F1500.000
G1 X45.041 Y14.056 F1500.000
G1 X43.992 Y17.244 F1500.000
G1 X43.455 Y18.579 F1500.000
G1 X43.060 Y19.455 F1500.000
G1 X42.853 Y19.887 F1500.000
G1 X42.414 Y20.741 F1500.000
G1 X42.184 Y21.162 F1500.000
G1 X41.970 Y21.590 F1500.000
G1 X40.820 Y23.699 F1500.000
G1 X40.053 Y24.917 F1500.000
G1 X39.504 Y25.707 F1500.000
G1 X39.248 Y26.117 F1500.000
G1 X37.914 Y28.113 F1500.000
G1 X37.053 Y29.267 F1500.000
G1 X36.451 Y30.015 F1500.000
G1 X35.827 Y30.744 F1500.000
G1 X35.180 Y31.455 F1500.000
G1 X34.868 Y31.820 F1500.000
G1 X33.579 Y33.252 F1500.000
G1 X33.237 Y33.590 F1500.000
G1 X32.902 Y33.936 F1500.000
G1 X32.556 Y34.271 F1500.000
G1 X31.850 Y34.925 F1500.000
G1 X31.489 Y35.244 F1500.000
G1 X30.748 Y35.865 F1500.000
G1 X30.372 Y36.165 F1500.000
G1 X30.011 Y36.485 F1500.000
G1 X29.267 Y37.098 F1500.000
G1 X28.165 Y38.026 F1500.000
G1 X27.011 Y38.891 F1500.000
G1 X26.222 Y39.440 F1500.000
G1 X25.414 Y39.966 F1500.000
G1 X24.590 Y40.470 F1500.000
G1 X23.752 Y40.947 F1500.000
G1 X23.327 Y41.177 F1500.000
G1 X22.914 Y41.425 F1500.000
G1 X20.812 Y42.609 F1500.000
G1 X19.515 Y43.248 F1500.000
G1 X18.635 Y43.639 F1500.000
G1 X17.744 Y44.000 F1500.000
G1 X16.838 Y44.331 F1500.000
G1 X16.380 Y44.485 F1500.000
G1 X15.936 Y44.669 F1500.000
G1 X15.030 Y45.004 F1500.000
G1 X14.132 Y45.357 F1500.000
G1 X13.673 Y45.504 F1500.000
G1 X12.748 Y45.771 F1500.000
G1 X12.278 Y45.883 F1500.000
G1 X11.812 Y46.008 F1500.000
G1 X10.395 Y46.320 F1500.000
G1 X9.929 Y46.444 F1500.000
G1 X8.989 Y46.662 F1500.000
G1 X8.056 Y46.902 F1500.000
G1 X7.579 Y46.985 F1500.000
G1 X7.105 Y47.083 F1500.000
G1 X6.632 Y47.169 F1500.000
G1 X5.677 Y47.308 F1500.000
G1 X4.714 Y47.414 F1500.000
G1 X3.752 Y47.489 F1500.000
G1 X2.789 Y47.534 F1500.000
G1 X2.308 Y47.575 F1500.000
G1 X1.346 Y47.624 F1500.000
G1 X-0.094 Y47.711 F1500.000
G1 X-1.526 Y47.718 F1500.000
G1 X-2.481 Y47.688 F1500.000
G1 X-3.914 Y47.590 F1500.000
G1 X-5.346 Y47.425 F1500.000
G1 X-6.293 Y47.282 F1500.000
G1 X-6.771 Y47.229 F1500.000
G1 X-7.718 Y47.090 F1500.000
G1 X-9.617 Y46.831 F1500.000
G1 X-11.030 Y46.553 F1500.000
G1 X-11.962 Y46.335 F1500.000
G1 X-13.353 Y45.955 F1500.000
G1 X-14.722 Y45.508 F1500.000
G1 X-15.620 Y45.177 F1500.000
G1 X-16.511 Y44.816 F1500.000
G1 X-17.387 Y44.429 F1500.000
G1 X-17.823 Y44.226 F1500.000
G1 X-18.267 Y44.041 F1500.000
G1 X-21.331 Y42.662 F1500.000
G1 X-22.609 Y42.000 F1500.000
G1 X-23.444 Y41.526 F1500.000
G1 X-24.267 Y41.030 F1500.000
G1 X-25.075 Y40.508 F1500.000
G1 X-25.865 Y39.959 F1500.000
G1 X-26.635 Y39.387 F1500.000
G1 X-27.034 Y39.117 F1500.000
G1 X-29.368 Y37.425 F1500.000
G1 X-30.492 Y36.523 F1500.000
G1 X-31.222 Y35.898 F1500.000
G1 X-32.289 Y34.929 F1500.000
G1 X-32.977 Y34.256 F1500.000
G1 X-33.650 Y33.568 F1500.000
G1 X-34.301 Y32.857 F1500.000
G1 X-34.932 Y32.132 F1500.000
G1 X-35.545 Y31.391 F1500.000
G1 X-35.865 Y31.034 F1500.000
G1 X-37.429 Y29.203 F1500.000
G1 X-38.320 Y28.068 F1500.000
G1 X-38.891 Y27.293 F1500.000
G1 X-39.714 Y26.105 F1500.000
G1 X-40.492 Y24.887 F1500.000
G1 X-40.985 Y24.056 F1500.000
G1 X-41.684 Y22.793 F1500.000
G1 X-42.124 Y21.936 F1500.000
G1 X-42.541 Y21.068 F1500.000
G1 X-42.936 Y20.188 F1500.000
G1 X-43.489 Y18.850 F1500.000
G1 X-43.831 Y17.947 F1500.000
G1 X-44.019 Y17.504 F1500.000
G1 X-44.368 Y16.605 F1500.000
G1 X-44.729 Y15.711 F1500.000
G1 X-44.883 Y15.252 F1500.000
G1 X-45.049 Y14.797 F1500.000
G1 X-45.203 Y14.338 F1500.000
G1 X-45.624 Y12.955 F1500.000
G1 X-45.876 Y12.023 F1500.000
G1 X-46.207 Y10.613 F1500.000
G1 X-46.398 Y9.665 F1500.000
G1 X-46.639 Y8.237 F1500.000
G1 X-46.737 Y7.763 F1500.000
G1 X-46.906 Y6.812 F1500.000
G1 X-47.086 Y5.865 F1500.000
G1 X-47.282 Y4.432 F1500.000
G1 X-47.421 Y2.989 F1500.000
G1 X-47.485 Y2.026 F1500.000
G1 X-47.523 Y1.064 F1500.000
G1 X-47.526 Y-0.376 F1500.000
G1 X-47.496 Y-1.331 F1500.000
G1 X-47.500 Y-1.808 F1500.000
G1 X-47.455 Y-4.195 F1500.000
G1 X-47.417 Y-4.673 F1500.000
G1 X-47.391 Y-5.150 F1500.000
G1 X-47.353 Y-5.628 F1500.000
G1 X-47.188 Y-7.060 F1500.000
G1 X-47.041 Y-8.008 F1500.000
G1 X-46.868 Y-8.951 F1500.000
G1 X-46.665 Y-9.891 F1500.000
G1 X-46.432 Y-10.823 F1500.000
G1 X-46.169 Y-11.748 F1500.000
G1 X-46.060 Y-12.214 F1500.000
G1 X-45.816 Y-13.139 F1500.000
G1 X-45.466 Y-14.538 F1500.000
G1 X-45.045 Y-15.917 F1500.000
G1 X-44.737 Y-16.827 F1500.000
G1 X-44.222 Y-18.173 F1500.000
G1 X-43.850 Y-19.056 F1500.000
G1 X-43.451 Y-19.932 F1500.000
G1 X-42.812 Y-21.222 F1500.000
G1 X-42.353 Y-22.068 F1500.000
G1 X-41.872 Y-22.898 F1500.000
G1 X-41.647 Y-23.323 F1500.000
G1 X-39.515 Y-27.083 F1500.000
G1 X-39.248 Y-27.485 F1500.000
G1 X-38.992 Y-27.891 F1500.000
G1 X-38.726 Y-28.293 F1500.000
G1 X-38.169 Y-29.075 F1500.000
G1 X-37.583 Y-29.838 F1500.000
G1 X-36.974 Y-30.583 F1500.000
G1 X-36.658 Y-30.944 F1500.000
G1 X-36.357 Y-31.320 F1500.000
G1 X-34.474 Y-33.511 F1500.000
G1 X-34.135 Y-33.853 F1500.000
G1 X-33.805 Y-34.203 F1500.000
G1 X-33.466 Y-34.545 F1500.000
G1 X-32.767 Y-35.203 F1500.000
G1 X-32.410 Y-35.523 F1500.000
G1 X-31.677 Y-36.143 F1500.000
G1 X-31.301 Y-36.444 F1500.000
G1 X-30.940 Y-36.763 F1500.000
G1 X-27.594 Y-39.515 F1500.000
G1 X-27.203 Y-39.793 F1500.000
G1 X-26.816 Y-40.083 F1500.000
G1 X-26.425 Y-40.361 F1500.000
G1 X-25.620 Y-40.895 F1500.000
G1 X-24.801 Y-41.398 F1500.000
G1 X-23.962 Y-41.880 F1500.000
G1 X-23.109 Y-42.331 F1500.000
G1 X-22.692 Y-42.571 F1500.000
G1 X-19.297 Y-44.395 F1500.000
