(Exported by FreeCAD)
(Post Processor: PathScripts.post.grbl_post)
(Output Time:2020-11-05 17:41:42.577000)
(begin preamble)
G17 G90
G21
(begin operation: Contour004)
(Path: Contour004)
(Contour004)
(Compensated Tool Path. Diameter: 6.0)
G0 Z6.0000
G0 X58.0000 Y47.0000
G0 Z-15.5000
G1 X56.1500 Y47.0000 Z-15.5000 F300.00
G1 X56.1500 Y51.3000 Z-15.5000 F1200.00
G3 X51.3000 Y56.1500 Z-15.5000 I-4.8638 J-0.0138 F1200.00
G1 X-51.3000 Y56.1500 Z-15.5000 F1200.00
G3 X-56.1500 Y51.3000 Z-15.5000 I0.0138 J-4.8638 F1200.00
G1 X-56.1500 Y-51.3000 Z-15.5000 F1200.00
G3 X-51.3000 Y-56.1500 Z-15.5000 I4.8638 J0.0138 F1200.00
G1 X51.3000 Y-56.1500 Z-15.5000 F1200.00
G3 X56.1500 Y-51.3000 Z-15.5000 I-0.0138 J4.8638 F1200.00
G1 X56.1500 Y47.0000 Z-15.5000 F1200.00
G0 Z6.0000
(finish operation: Contour004)
(begin postamble)
M5
G17 G90
; M2
